;FLAVOR:Marlin
;TIME:2048
;Filament used: 1.00028m
;Layer height: 0.14
;MINX:-25.875
;MINY:-18.375
;MINZ:0.21
;MAXX:25.875
;MAXY:18.375
;MAXZ:9.87
;Generated with Cura_SteamEngine 4.8.0
M140 S45
M105
M190 S45
M104 S205
M105
M109 S205
M82 ;absolute extrusion mode
;MPMD Basic Calibration Tutorial: 
; https://www.thingiverse.com/thing:3892011 
; 
; If you want to put calibration values in your 
; Start Gcode, put them here. 
; 
;If on stock firmware, at minimum, consider adding 
;M665 R here since there is a firmware bug.  
; 
; Calibration part ends here 
; 
G90 ; switch to absolute positioning 
G92 E0 ; reset extrusion distance 
G1 E20 F200 ; purge 20mm of filament to prime nozzle. 
G92 E0 ; reset extrusion distance 
G4 S5 ; Pause for 5 seconds to allow time for removing extruded filament 
G28 ; start from home position 
G1 E-6 F900 ; retract 6mm of filament before starting the bed leveling process 
G92 E0 ; reset extrusion distance 
G4 S5 ; pause for 5 seconds to allow time for removing extruded filament 
G29 P2 Z0.28 ; Auto-level ; ADJUST Z higher or lower to set first layer height. Start with 0.02 adjustments. 
G1 Z30 ; raise Z 30mm to prepare for priming the nozzle 
G1 E5 F200 ; extrude 5mm of filament to help prime the nozzle just prior to the start of the print 
G92 E0 ; reset extrusion distance 
G4 S5 ; pause for 5 seconds to allow time for cleaning the nozzle and build plate if needed 
G92 E0
G92 E0
G1 F3000 E-4
;LAYER_COUNT:70
;LAYER:0
M107
G0 F3600 X2.997 Y-18.108 Z0.21
;TYPE:SKIRT
G1 F3000 E0
G1 F1800 X3.715 Y-18.247 E0.02235
G1 X4.342 Y-18.31 E0.0416
G1 X5.161 Y-18.36 E0.06668
G1 X5.955 Y-18.369 E0.09094
G1 X6.392 Y-18.339 E0.10433
G1 X7.185 Y-18.263 E0.12867
G1 X7.97 Y-18.148 E0.15291
G1 X9.015 Y-17.858 E0.18605
G1 X9.768 Y-18.059 E0.20987
G1 X10.544 Y-18.225 E0.23412
G1 X11.33 Y-18.311 E0.25828
G1 X12.172 Y-18.361 E0.28406
G1 X13.172 Y-18.357 E0.31461
G1 X13.776 Y-18.316 E0.33311
G1 X14.564 Y-18.222 E0.35736
G1 X15.065 Y-18.12 E0.37299
G1 X15.578 Y-17.998 E0.3891
G1 X16.34 Y-17.776 E0.41335
G1 X17.075 Y-17.478 E0.43759
G1 X17.952 Y-17.001 E0.4681
G1 X18.6 Y-16.593 E0.49149
G1 X19.249 Y-16.137 E0.51573
G1 X19.849 Y-15.618 E0.53997
G1 X20.394 Y-15.041 E0.56423
G1 X20.955 Y-14.3 E0.59263
G1 X21.398 Y-13.636 E0.61702
G1 X21.804 Y-12.954 E0.64127
G1 X22.14 Y-12.236 E0.6655
G1 X22.151 Y-12.209 E0.66639
G1 X22.413 Y-11.46 E0.69064
G1 X22.615 Y-10.598 E0.71769
G1 X22.757 Y-9.788 E0.74282
G1 X22.854 Y-9 E0.76708
G1 X22.875 Y-8.428 E0.78457
G1 X22.875 Y-5.5 E0.87405
G1 X22.834 Y-4.704 E0.8984
G1 X23.107 Y-4.495 E0.90891
G1 X23.684 Y-3.95 E0.93316
G1 X24.204 Y-3.351 E0.9574
G1 X24.66 Y-2.702 E0.98164
G1 X25.049 Y-2.01 E1.0059
G1 X25.367 Y-1.283 E1.03014
G1 X25.61 Y-.527 E1.05441
G1 X25.775 Y0.249 E1.07865
G1 X25.861 Y1.037 E1.10288
G1 X25.875 Y1.5 E1.11703
G1 X25.875 Y10.5 E1.39205
G1 X25.835 Y11.292 E1.41628
G1 X25.716 Y12.077 E1.44054
G1 X25.518 Y12.845 E1.46478
G1 X25.243 Y13.59 E1.48905
G1 X24.896 Y14.303 E1.51328
G1 X24.478 Y14.978 E1.53754
G1 X23.995 Y15.607 E1.56177
G1 X23.45 Y16.184 E1.58603
G1 X22.851 Y16.704 E1.61027
G1 X22.202 Y17.16 E1.6345
G1 X21.51 Y17.549 E1.65876
G1 X20.783 Y17.867 E1.68301
G1 X20.027 Y18.11 E1.70728
G1 X19.251 Y18.275 E1.73152
G1 X18.463 Y18.361 E1.75574
G1 X18 Y18.375 E1.7699
G1 X-18 Y18.375 E2.86997
G1 X-18.792 Y18.335 E2.89421
G1 X-19.577 Y18.216 E2.91847
G1 X-20.345 Y18.018 E2.9427
G1 X-21.09 Y17.743 E2.96697
G1 X-21.803 Y17.396 E2.9912
G1 X-22.478 Y16.978 E3.01546
G1 X-23.107 Y16.495 E3.0397
G1 X-23.684 Y15.95 E3.06395
G1 X-24.204 Y15.351 E3.08819
G1 X-24.66 Y14.702 E3.11243
G1 X-25.049 Y14.01 E3.13669
G1 X-25.367 Y13.283 E3.16093
G1 X-25.61 Y12.527 E3.1852
G1 X-25.775 Y11.751 E3.20944
G1 X-25.861 Y10.963 E3.23366
G1 X-25.875 Y10.5 E3.24782
G1 X-25.875 Y1.5 E3.52284
G1 X-25.835 Y0.708 E3.54707
G1 X-25.716 Y-0.077 E3.57133
G1 X-25.518 Y-.845 E3.59557
G1 X-25.243 Y-1.59 E3.61984
G1 X-24.896 Y-2.303 E3.64407
G1 X-24.478 Y-2.978 E3.66833
G1 X-23.995 Y-3.607 E3.69256
G1 X-23.45 Y-4.184 E3.71682
G1 X-22.851 Y-4.704 E3.74106
G1 X-22.202 Y-5.16 E3.76529
G1 X-21.51 Y-5.549 E3.78955
G1 X-20.783 Y-5.867 E3.8138
G1 X-20.027 Y-6.11 E3.83806
G1 X-19.251 Y-6.275 E3.86231
G1 X-18.875 Y-6.316 E3.87387
G1 X-18.875 Y-10.5 E4.00172
G1 X-18.835 Y-11.292 E4.02595
G1 X-18.716 Y-12.077 E4.05021
G1 X-18.518 Y-12.845 E4.07445
G1 X-18.243 Y-13.59 E4.09872
G1 X-17.896 Y-14.303 E4.12295
G1 X-17.478 Y-14.978 E4.14721
G1 X-16.995 Y-15.607 E4.17144
G1 X-16.45 Y-16.184 E4.1957
G1 X-15.851 Y-16.704 E4.21993
G1 X-15.202 Y-17.16 E4.24417
G1 X-14.51 Y-17.549 E4.26843
G1 X-13.783 Y-17.867 E4.29268
G1 X-13.027 Y-18.11 E4.31694
G1 X-12.251 Y-18.275 E4.34119
G1 X-11.463 Y-18.361 E4.36541
G1 X-11 Y-18.375 E4.37956
G1 X-9.422 Y-18.375 E4.42778
G1 X-8.63 Y-18.335 E4.45202
G1 X-7.774 Y-18.375 E4.4782
G1 X-6 Y-18.375 E4.53241
G1 X-5.208 Y-18.335 E4.55664
G1 X-4.995 Y-18.303 E4.56323
G1 X-4.7 Y-18.344 E4.57233
G1 X-4 Y-18.375 E4.59374
G1 X-2.551 Y-18.375 E4.63802
G1 X-1.759 Y-18.335 E4.66225
G1 X-1.514 Y-18.298 E4.66982
G1 X-1.188 Y-18.344 E4.67988
G1 X-.486 Y-18.375 E4.70135
G1 X1 Y-18.375 E4.74676
G1 X1.792 Y-18.335 E4.771
G1 X2.147 Y-18.281 E4.78197
G0 F1620 X2.577 Y-18.216
G0 X2.997 Y-18.108
G0 F3600 X3.02 Y-17.756
G1 F1800 X3.781 Y-17.903 E4.80565
G1 X4.363 Y-17.961 E4.82353
G1 X5.182 Y-18.011 E4.8486
G1 X5.958 Y-18.018 E4.87231
G1 X6.359 Y-17.991 E4.88459
G1 X7.152 Y-17.915 E4.90894
G1 X7.919 Y-17.801 E4.93263
G1 X8.976 Y-17.507 E4.96616
G1 X9.108 Y-17.521 E4.97021
G1 X9.858 Y-17.721 E4.99393
G1 X10.617 Y-17.882 E5.01764
G1 X11.351 Y-17.962 E5.04021
G1 X12.193 Y-18.012 E5.06598
G1 X13.149 Y-18.008 E5.09519
G1 X13.753 Y-17.967 E5.11369
G1 X14.523 Y-17.874 E5.13739
G1 X14.984 Y-17.78 E5.15177
G1 X15.497 Y-17.658 E5.16788
G1 X16.241 Y-17.44 E5.19158
G1 X16.959 Y-17.146 E5.21528
G1 X17.765 Y-16.705 E5.24336
G1 X18.413 Y-16.297 E5.26676
G1 X19.048 Y-15.85 E5.29049
G1 X19.632 Y-15.341 E5.31416
G1 X20.162 Y-14.774 E5.33788
G1 X20.664 Y-14.105 E5.36344
G1 X21.107 Y-13.441 E5.38783
G1 X21.503 Y-12.775 E5.41151
G1 X21.827 Y-12.077 E5.43502
G1 X22.082 Y-11.345 E5.45871
G1 X22.27 Y-10.537 E5.48406
G1 X22.412 Y-9.727 E5.50919
G1 X22.506 Y-8.958 E5.53286
G1 X22.525 Y-8.428 E5.54907
G1 X22.525 Y-5.5 E5.63854
G1 X22.485 Y-4.725 E5.66225
G1 X22.459 Y-4.555 E5.66751
G1 X22.972 Y-4.148 E5.68752
G1 X23.527 Y-3.606 E5.71122
G1 X24.024 Y-3.01 E5.73494
G1 X24.456 Y-2.366 E5.75863
G1 X24.819 Y-1.681 E5.78232
G1 X25.111 Y-.962 E5.80604
G1 X25.326 Y-.217 E5.82973
G1 X25.464 Y0.546 E5.85343
G1 X25.525 Y1.5 E5.88264
G1 X25.525 Y10.5 E6.15766
G1 X25.485 Y11.275 E6.18137
G1 X25.366 Y12.041 E6.20506
G1 X25.168 Y12.791 E6.22876
G1 X24.894 Y13.517 E6.25248
G1 X24.547 Y14.21 E6.27616
G1 X24.13 Y14.864 E6.29986
G1 X23.648 Y15.472 E6.32357
G1 X23.106 Y16.027 E6.34727
G1 X22.51 Y16.524 E6.37099
G1 X21.866 Y16.956 E6.39468
G1 X21.181 Y17.319 E6.41837
G1 X20.462 Y17.611 E6.44209
G1 X19.717 Y17.826 E6.46578
G1 X18.954 Y17.964 E6.48948
G1 X18 Y18.025 E6.51869
G1 X-18 Y18.025 E7.61877
G1 X-18.775 Y17.985 E7.64248
G1 X-19.541 Y17.866 E7.66617
G1 X-20.291 Y17.668 E7.68987
G1 X-21.017 Y17.394 E7.71358
G1 X-21.71 Y17.047 E7.73727
G1 X-22.364 Y16.63 E7.76097
G1 X-22.972 Y16.148 E7.78468
G1 X-23.527 Y15.606 E7.80838
G1 X-24.024 Y15.01 E7.8321
G1 X-24.456 Y14.366 E7.85579
G1 X-24.819 Y13.681 E7.87948
G1 X-25.111 Y12.962 E7.9032
G1 X-25.326 Y12.217 E7.92689
G1 X-25.464 Y11.454 E7.95059
G1 X-25.525 Y10.5 E7.9798
G1 X-25.525 Y1.5 E8.25482
G1 X-25.485 Y0.725 E8.27853
G1 X-25.366 Y-0.041 E8.30222
G1 X-25.168 Y-.791 E8.32592
G1 X-24.894 Y-1.517 E8.34963
G1 X-24.547 Y-2.21 E8.37332
G1 X-24.13 Y-2.864 E8.39702
G1 X-23.648 Y-3.472 E8.42073
G1 X-23.106 Y-4.027 E8.44443
G1 X-22.51 Y-4.524 E8.46815
G1 X-21.866 Y-4.956 E8.49184
G1 X-21.181 Y-5.319 E8.51553
G1 X-20.462 Y-5.611 E8.53925
G1 X-19.717 Y-5.826 E8.56294
G1 X-18.954 Y-5.964 E8.58664
G1 X-18.525 Y-5.991 E8.59977
G1 X-18.525 Y-10.5 E8.73756
G1 X-18.485 Y-11.275 E8.76127
G1 X-18.366 Y-12.041 E8.78496
G1 X-18.168 Y-12.791 E8.80866
G1 X-17.894 Y-13.517 E8.83237
G1 X-17.547 Y-14.21 E8.85606
G1 X-17.13 Y-14.864 E8.87976
G1 X-16.648 Y-15.472 E8.90347
G1 X-16.106 Y-16.027 E8.92717
G1 X-15.51 Y-16.524 E8.95089
G1 X-14.866 Y-16.956 E8.97458
G1 X-14.181 Y-17.319 E8.99827
G1 X-13.462 Y-17.611 E9.02199
G1 X-12.717 Y-17.826 E9.04568
G1 X-11.954 Y-17.964 E9.06937
G1 X-11 Y-18.025 E9.09859
G1 X-9.422 Y-18.025 E9.14681
G1 X-8.647 Y-17.985 E9.17052
G1 X-8.555 Y-17.971 E9.17336
G1 X-7.774 Y-18.025 E9.19729
G1 X-6 Y-18.025 E9.2515
G1 X-5.225 Y-17.985 E9.27521
G1 X-4.998 Y-17.95 E9.28223
G1 X-4 Y-18.025 E9.31281
G1 X-2.551 Y-18.025 E9.35709
G1 X-1.776 Y-17.985 E9.3808
G1 X-1.522 Y-17.946 E9.38866
G1 X-.948 Y-18.011 E9.40631
G1 X-.486 Y-18.025 E9.42043
G1 X1 Y-18.025 E9.46584
G1 X1.775 Y-17.985 E9.48955
G1 X2.169 Y-17.923 E9.50174
G0 F1620 X2.541 Y-17.866
G0 X3.02 Y-17.756
G0 F3600 X3.103 Y-17.416
G1 F1800 X3.847 Y-17.558 E9.52489
G1 X4.385 Y-17.612 E9.54141
G1 X5.204 Y-17.662 E9.56648
G1 X6.326 Y-17.642 E9.60077
G1 X7.119 Y-17.566 E9.62512
G1 X7.868 Y-17.454 E9.64826
G1 X8.858 Y-17.177 E9.67967
G1 X9.006 Y-17.124 E9.68448
G1 X9.198 Y-17.183 E9.69062
G1 X9.948 Y-17.383 E9.71434
G1 X10.689 Y-17.539 E9.73747
G1 X11.372 Y-17.612 E9.75846
G1 X12.214 Y-17.662 E9.78424
G1 X13.125 Y-17.659 E9.81208
G1 X13.729 Y-17.618 E9.83058
G1 X14.481 Y-17.526 E9.85373
G1 X14.903 Y-17.439 E9.86689
G1 X15.416 Y-17.317 E9.88301
G1 X16.143 Y-17.103 E9.90617
G1 X16.843 Y-16.814 E9.92931
G1 X17.579 Y-16.409 E9.95498
G1 X18.227 Y-16.001 E9.97838
G1 X18.846 Y-15.564 E10.00153
G1 X19.415 Y-15.064 E10.02468
G1 X19.928 Y-14.508 E10.0478
G1 X20.373 Y-13.911 E10.07055
G1 X20.816 Y-13.247 E10.09494
G1 X21.202 Y-12.596 E10.11807
G1 X21.503 Y-11.945 E10.13998
G1 X21.751 Y-11.23 E10.16311
G1 X21.925 Y-10.477 E10.18673
G1 X22.067 Y-9.667 E10.21186
G1 X22.158 Y-8.915 E10.235
G1 X22.175 Y-8.428 E10.24989
G1 X22.175 Y-5.5 E10.33937
G1 X22.135 Y-4.744 E10.3625
G1 X22.079 Y-4.393 E10.37336
G1 X22.248 Y-4.282 E10.37954
G1 X22.834 Y-3.802 E10.40269
G1 X23.366 Y-3.263 E10.42583
G1 X23.838 Y-2.671 E10.44897
G1 X24.245 Y-2.032 E10.47212
G1 X24.583 Y-1.354 E10.49527
G1 X24.847 Y-.645 E10.51839
G1 X25.035 Y0.089 E10.54154
G1 X25.144 Y0.838 E10.56467
G1 X25.175 Y1.5 E10.58492
G1 X25.175 Y10.5 E10.85994
G1 X25.135 Y11.256 E10.88307
G1 X25.016 Y12.004 E10.90622
G1 X24.818 Y12.735 E10.92936
G1 X24.544 Y13.442 E10.95253
G1 X24.198 Y14.115 E10.97565
G1 X23.782 Y14.748 E10.9988
G1 X23.302 Y15.334 E11.02195
G1 X22.763 Y15.866 E11.04509
G1 X22.171 Y16.338 E11.06823
G1 X21.532 Y16.745 E11.09138
G1 X20.854 Y17.083 E11.11453
G1 X20.145 Y17.347 E11.13765
G1 X19.411 Y17.535 E11.1608
G1 X18.662 Y17.644 E11.18393
G1 X18 Y17.675 E11.20418
G1 X-18 Y17.675 E12.30426
G1 X-18.756 Y17.635 E12.32739
G1 X-19.504 Y17.516 E12.35054
G1 X-20.235 Y17.318 E12.37368
G1 X-20.942 Y17.044 E12.39685
G1 X-21.615 Y16.698 E12.41997
G1 X-22.248 Y16.282 E12.44312
G1 X-22.834 Y15.802 E12.46627
G1 X-23.366 Y15.263 E12.48941
G1 X-23.838 Y14.671 E12.51255
G1 X-24.245 Y14.032 E12.5357
G1 X-24.583 Y13.354 E12.55885
G1 X-24.847 Y12.645 E12.58196
G1 X-25.035 Y11.911 E12.60512
G1 X-25.144 Y11.162 E12.62825
G1 X-25.175 Y10.5 E12.6485
G1 X-25.175 Y1.5 E12.92352
G1 X-25.135 Y0.744 E12.94665
G1 X-25.016 Y-0.004 E12.9698
G1 X-24.818 Y-.735 E12.99294
G1 X-24.544 Y-1.442 E13.01611
G1 X-24.198 Y-2.115 E13.03923
G1 X-23.782 Y-2.748 E13.06238
G1 X-23.302 Y-3.334 E13.08553
G1 X-22.763 Y-3.866 E13.10867
G1 X-22.171 Y-4.338 E13.13181
G1 X-21.532 Y-4.745 E13.15496
G1 X-20.854 Y-5.083 E13.17811
G1 X-20.145 Y-5.347 E13.20123
G1 X-19.411 Y-5.535 E13.22438
G1 X-18.662 Y-5.644 E13.24751
G1 X-18.175 Y-5.667 E13.26241
G1 X-18.175 Y-10.5 E13.41009
G1 X-18.135 Y-11.256 E13.43323
G1 X-18.016 Y-12.004 E13.45637
G1 X-17.818 Y-12.735 E13.47951
G1 X-17.544 Y-13.442 E13.50268
G1 X-17.198 Y-14.115 E13.52581
G1 X-16.782 Y-14.748 E13.54895
G1 X-16.302 Y-15.334 E13.5721
G1 X-15.763 Y-15.866 E13.59524
G1 X-15.171 Y-16.338 E13.61838
G1 X-14.532 Y-16.745 E13.64153
G1 X-13.854 Y-17.083 E13.66468
G1 X-13.145 Y-17.347 E13.6878
G1 X-12.411 Y-17.535 E13.71095
G1 X-11.662 Y-17.644 E13.73408
G1 X-11 Y-17.675 E13.75433
G1 X-9.422 Y-17.675 E13.80255
G1 X-8.666 Y-17.635 E13.82569
G1 X-8.611 Y-17.626 E13.82739
G1 X-7.774 Y-17.675 E13.85301
G1 X-6 Y-17.675 E13.90722
G1 X-5.244 Y-17.635 E13.93035
G1 X-5.001 Y-17.596 E13.93787
G1 X-4.774 Y-17.633 E13.9449
G1 X-4 Y-17.675 E13.96859
G1 X-2.551 Y-17.675 E14.01287
G1 X-1.795 Y-17.635 E14.036
G1 X-1.468 Y-17.608 E14.04603
G1 X-.486 Y-17.675 E14.0761
G1 X1 Y-17.675 E14.12151
G1 X1.756 Y-17.635 E14.14465
G1 X2.258 Y-17.555 E14.16018
G0 F1620 X2.504 Y-17.516
G0 X2.983 Y-17.386
G0 X3.103 Y-17.416
G0 F3600 X3.187 Y-17.076
G1 F1800 X3.913 Y-17.214 E14.18276
G1 X4.406 Y-17.262 E14.1979
G1 X5.225 Y-17.312 E14.22297
G1 X6.292 Y-17.294 E14.25558
G1 X7.085 Y-17.218 E14.27993
G1 X7.816 Y-17.108 E14.30251
G1 X8.74 Y-16.848 E14.33185
G1 X8.996 Y-16.756 E14.34016
G1 X9.288 Y-16.845 E14.34949
G1 X10.038 Y-17.045 E14.37321
G1 X10.761 Y-17.196 E14.39578
G1 X11.392 Y-17.263 E14.41517
G1 X12.234 Y-17.313 E14.44094
G1 X13.101 Y-17.309 E14.46744
G1 X13.705 Y-17.268 E14.48593
G1 X14.438 Y-17.178 E14.5085
G1 X14.822 Y-17.099 E14.52048
G1 X15.335 Y-16.977 E14.53659
G1 X16.043 Y-16.767 E14.55916
G1 X16.725 Y-16.482 E14.58175
G1 X17.392 Y-16.113 E14.60504
G1 X18.04 Y-15.705 E14.62844
G1 X18.643 Y-15.278 E14.65102
G1 X19.197 Y-14.788 E14.67362
G1 X19.694 Y-14.242 E14.69618
G1 X20.081 Y-13.717 E14.71611
G1 X20.524 Y-13.053 E14.7405
G1 X20.901 Y-12.417 E14.7631
G1 X21.179 Y-11.813 E14.78341
G1 X21.42 Y-11.115 E14.80598
G1 X21.58 Y-10.417 E14.82786
G1 X21.722 Y-9.607 E14.85299
G1 X21.81 Y-8.873 E14.87558
G1 X21.825 Y-8.428 E14.88919
G1 X21.825 Y-5.5 E14.97866
G1 X21.785 Y-4.762 E15.00124
G1 X21.698 Y-4.227 E15.01781
G1 X22.129 Y-3.935 E15.03372
G1 X22.692 Y-3.457 E15.05628
G1 X23.2 Y-2.921 E15.07885
G1 X23.647 Y-2.333 E15.10142
G1 X24.028 Y-1.7 E15.124
G1 X24.339 Y-1.03 E15.14657
G1 X24.575 Y-.33 E15.16914
G1 X24.734 Y0.391 E15.1917
G1 X24.815 Y1.126 E15.2143
G1 X24.825 Y1.5 E15.22573
G1 X24.825 Y10.5 E15.50075
G1 X24.785 Y11.238 E15.52334
G1 X24.666 Y11.966 E15.54588
G1 X24.468 Y12.678 E15.56846
G1 X24.195 Y13.364 E15.59102
G1 X23.849 Y14.017 E15.61361
G1 X23.435 Y14.629 E15.63618
G1 X22.957 Y15.192 E15.65875
G1 X22.421 Y15.7 E15.68132
G1 X21.833 Y16.147 E15.70389
G1 X21.2 Y16.528 E15.72647
G1 X20.53 Y16.839 E15.74904
G1 X19.83 Y17.075 E15.77161
G1 X19.109 Y17.234 E15.79417
G1 X18.374 Y17.315 E15.81677
G1 X18 Y17.325 E15.8282
G1 X-18 Y17.325 E16.92828
G1 X-18.738 Y17.285 E16.95086
G1 X-19.466 Y17.166 E16.97341
G1 X-20.178 Y16.968 E16.99599
G1 X-20.864 Y16.695 E17.01855
G1 X-21.517 Y16.349 E17.04113
G1 X-22.129 Y15.935 E17.06371
G1 X-22.692 Y15.457 E17.08628
G1 X-23.2 Y14.921 E17.10885
G1 X-23.647 Y14.333 E17.13142
G1 X-24.028 Y13.7 E17.15399
G1 X-24.339 Y13.03 E17.17656
G1 X-24.575 Y12.33 E17.19914
G1 X-24.734 Y11.609 E17.2217
G1 X-24.815 Y10.874 E17.2443
G1 X-24.825 Y10.5 E17.25573
G1 X-24.825 Y1.5 E17.53075
G1 X-24.785 Y0.762 E17.55333
G1 X-24.666 Y0.034 E17.57587
G1 X-24.468 Y-.678 E17.59846
G1 X-24.195 Y-1.364 E17.62102
G1 X-23.849 Y-2.017 E17.6436
G1 X-23.435 Y-2.629 E17.66618
G1 X-22.957 Y-3.192 E17.68875
G1 X-22.421 Y-3.7 E17.71131
G1 X-21.833 Y-4.147 E17.73388
G1 X-21.2 Y-4.528 E17.75646
G1 X-20.53 Y-4.839 E17.77903
G1 X-19.83 Y-5.075 E17.80161
G1 X-19.109 Y-5.234 E17.82417
G1 X-18.374 Y-5.315 E17.84676
G1 X-17.82 Y-5.325 E17.8637
G1 X-17.825 Y-5.5 E17.86905
G1 X-17.825 Y-10.5 E18.02183
