;FLAVOR:Marlin
;TIME:2102
;Filament used: 1.26038m
;Layer height: 0.14
;MINX:-15.41
;MINY:-18.91
;MINZ:0.21
;MAXX:19.41
;MAXY:15.91
;MAXZ:19.95
;Generated with Cura_SteamEngine 4.8.0
M140 S45
M105
M190 S45
M104 S205
M105
M109 S205
M82 ;absolute extrusion mode
;MPMD Basic Calibration Tutorial: 
; https://www.thingiverse.com/thing:3892011 
; 
; If you want to put calibration values in your 
; Start Gcode, put them here. 
; 
;If on stock firmware, at minimum, consider adding 
;M665 R here since there is a firmware bug.  
; 
; Calibration part ends here 
; 
G90 ; switch to absolute positioning 
G92 E0 ; reset extrusion distance 
G1 E20 F200 ; purge 20mm of filament to prime nozzle. 
G92 E0 ; reset extrusion distance 
G4 S5 ; Pause for 5 seconds to allow time for removing extruded filament 
G28 ; start from home position 
G1 E-6 F900 ; retract 6mm of filament before starting the bed leveling process 
G92 E0 ; reset extrusion distance 
G4 S5 ; pause for 5 seconds to allow time for removing extruded filament 
G29 P2 Z0.28 ; Auto-level ; ADJUST Z higher or lower to set first layer height. Start with 0.02 adjustments. 
G1 Z30 ; raise Z 30mm to prepare for priming the nozzle 
G1 E5 F200 ; extrude 5mm of filament to help prime the nozzle just prior to the start of the print 
G92 E0 ; reset extrusion distance 
G4 S5 ; pause for 5 seconds to allow time for cleaning the nozzle and build plate if needed 
G92 E0
G92 E0
G1 F3000 E-4
;LAYER_COUNT:142
;LAYER:0
M107
G0 F3600 X-11.763 Y9.16 Z0.21
;TYPE:SKIRT
G1 F3000 E0
G1 F1800 X-12.339 Y8.371 E0.02985
G1 X-12.781 Y7.697 E0.05448
G1 X-13.214 Y6.955 E0.08073
G1 X-13.463 Y6.492 E0.0968
G1 X-13.662 Y6.083 E0.1107
G1 X-14.027 Y5.285 E0.13751
G1 X-14.221 Y4.824 E0.1528
G1 X-14.352 Y4.466 E0.16444
G1 X-14.621 Y3.676 E0.18995
G1 X-14.778 Y3.155 E0.20657
G1 X-14.861 Y2.834 E0.21671
G1 X-15.041 Y2.073 E0.2406
G1 X-15.159 Y1.468 E0.25944
G1 X-15.203 Y1.179 E0.26837
G1 X-15.303 Y0.457 E0.29064
G1 X-15.368 Y-.255 E0.31249
G1 X-15.409 Y-1.131 E0.33929
G1 X-15.41 Y-1.852 E0.36132
G1 X-15.373 Y-2.651 E0.38576
G1 X-15.362 Y-2.838 E0.39149
G1 X-15.304 Y-3.435 E0.40982
G1 X-15.206 Y-4.157 E0.43208
G1 X-15.151 Y-4.514 E0.44312
G1 X-15.043 Y-5.062 E0.46019
G1 X-14.864 Y-5.823 E0.48408
G1 X-14.625 Y-6.658 E0.51062
G1 X-14.358 Y-7.448 E0.5361
G1 X-14.171 Y-7.949 E0.55244
G1 X-14.032 Y-8.273 E0.56321
G1 X-13.669 Y-9.07 E0.58997
G1 X-13.448 Y-9.523 E0.60538
G1 X-13.216 Y-9.95 E0.62023
G1 X-12.783 Y-10.693 E0.6465
G1 X-12.333 Y-11.38 E0.6716
G1 X-11.756 Y-12.168 E0.70145
G1 X-11.245 Y-12.796 E0.72619
G1 X-10.588 Y-13.523 E0.75613
G1 X-10.034 Y-14.078 E0.78009
G1 X-9.307 Y-14.737 E0.81008
G1 X-8.663 Y-15.261 E0.83545
G1 X-7.873 Y-15.838 E0.86534
G1 X-7.197 Y-16.281 E0.89004
G1 X-6.455 Y-16.714 E0.91629
G1 X-5.992 Y-16.963 E0.93235
G1 X-5.582 Y-17.163 E0.94629
G1 X-4.786 Y-17.527 E0.97304
G1 X-4.261 Y-17.745 E0.99041
G1 X-3.966 Y-17.852 E1
G1 X-3.176 Y-18.121 E1.0255
G1 X-2.655 Y-18.278 E1.04213
G1 X-2.334 Y-18.361 E1.05226
G1 X-1.573 Y-18.541 E1.07616
G1 X-.968 Y-18.659 E1.09499
G1 X-.679 Y-18.703 E1.10393
G1 X0.043 Y-18.803 E1.1262
G1 X0.755 Y-18.868 E1.14805
G1 X1.632 Y-18.909 E1.17488
G1 X2.354 Y-18.91 E1.19694
G1 X3.151 Y-18.873 E1.22132
G1 X3.338 Y-18.862 E1.22704
G1 X3.935 Y-18.804 E1.24537
G1 X4.657 Y-18.706 E1.26764
G1 X5.014 Y-18.651 E1.27868
G1 X5.562 Y-18.543 E1.29574
G1 X6.323 Y-18.364 E1.31963
G1 X7.158 Y-18.125 E1.34617
G1 X7.948 Y-17.858 E1.37165
G1 X8.449 Y-17.671 E1.388
G1 X8.777 Y-17.53 E1.39891
G1 X9.573 Y-17.167 E1.42564
G1 X10.038 Y-16.939 E1.44147
G1 X10.443 Y-16.719 E1.45555
G1 X11.186 Y-16.287 E1.48181
G1 X11.88 Y-15.833 E1.50715
G1 X12.668 Y-15.256 E1.537
G1 X13.296 Y-14.745 E1.56174
G1 X14.023 Y-14.088 E1.59168
G1 X14.578 Y-13.534 E1.61565
G1 X15.237 Y-12.807 E1.64563
G1 X15.76 Y-12.165 E1.67093
G1 X16.336 Y-11.377 E1.70076
G1 X16.778 Y-10.702 E1.72541
G1 X17.212 Y-9.959 E1.75171
G1 X17.463 Y-9.493 E1.76788
G1 X17.664 Y-9.08 E1.78192
G1 X18.028 Y-8.283 E1.80869
G1 X18.245 Y-7.761 E1.82597
G1 X18.352 Y-7.466 E1.83556
G1 X18.621 Y-6.676 E1.86106
G1 X18.778 Y-6.155 E1.87769
G1 X18.861 Y-5.834 E1.88782
G1 X19.041 Y-5.073 E1.91171
G1 X19.159 Y-4.468 E1.93055
G1 X19.202 Y-4.182 E1.93939
G1 X19.302 Y-3.462 E1.9616
G1 X19.368 Y-2.746 E1.98357
G1 X19.409 Y-1.868 E2.01043
G1 X19.41 Y-1.148 E2.03243
G1 X19.373 Y-.349 E2.05687
G1 X19.362 Y-.162 E2.0626
G1 X19.304 Y0.435 E2.08093
G1 X19.206 Y1.157 E2.10319
G1 X19.151 Y1.514 E2.11423
G1 X19.043 Y2.062 E2.1313
G1 X18.864 Y2.823 E2.15519
G1 X18.625 Y3.658 E2.18173
G1 X18.358 Y4.448 E2.20721
G1 X18.171 Y4.949 E2.22355
G1 X18.03 Y5.277 E2.23446
G1 X17.667 Y6.073 E2.26119
G1 X17.218 Y6.945 E2.29117
G1 X16.785 Y7.689 E2.31747
G1 X16.333 Y8.38 E2.3427
G1 X15.756 Y9.168 E2.37255
G1 X15.245 Y9.796 E2.39729
G1 X14.588 Y10.523 E2.42723
G1 X14.034 Y11.078 E2.45119
G1 X13.307 Y11.737 E2.48118
G1 X12.663 Y12.261 E2.50655
G1 X11.873 Y12.838 E2.53644
G1 X11.197 Y13.281 E2.56114
G1 X10.455 Y13.714 E2.58739
G1 X9.992 Y13.963 E2.60346
G1 X9.582 Y14.163 E2.6174
G1 X8.786 Y14.527 E2.64414
G1 X8.261 Y14.745 E2.66151
G1 X7.966 Y14.852 E2.6711
G1 X7.176 Y15.121 E2.6966
G1 X6.655 Y15.278 E2.71323
G1 X6.334 Y15.361 E2.72336
G1 X5.573 Y15.541 E2.74726
G1 X4.968 Y15.659 E2.7661
G1 X4.679 Y15.703 E2.77503
G1 X3.957 Y15.803 E2.7973
G1 X3.245 Y15.868 E2.81915
G1 X2.368 Y15.909 E2.84598
G1 X1.646 Y15.91 E2.86804
G1 X0.849 Y15.873 E2.89242
G1 X0.662 Y15.862 E2.89815
G1 X0.065 Y15.804 E2.91647
G1 X-.657 Y15.706 E2.93874
G1 X-1.014 Y15.651 E2.94978
G1 X-1.562 Y15.543 E2.96685
G1 X-2.323 Y15.364 E2.99073
G1 X-3.158 Y15.125 E3.01727
G1 X-3.948 Y14.858 E3.04276
G1 X-4.449 Y14.671 E3.0591
G1 X-4.777 Y14.53 E3.07001
G1 X-5.575 Y14.166 E3.09681
G1 X-6.038 Y13.939 E3.11257
G1 X-6.443 Y13.719 E3.12665
G1 X-7.186 Y13.287 E3.15291
G1 X-7.882 Y12.832 E3.17832
G1 X-8.671 Y12.254 E3.20821
G1 X-9.297 Y11.743 E3.2329
G1 X-10.025 Y11.085 E3.26289
G1 X-10.58 Y10.531 E3.28685
G1 X-11.214 Y9.832 E3.31569
G0 F1620 X-11.238 Y9.805
G0 X-11.763 Y9.16
G0 F3600 X-11.481 Y8.954
G1 F1800 X-12.057 Y8.165 E3.34554
G1 X-12.478 Y7.521 E3.36905
G1 X-12.911 Y6.779 E3.39531
G1 X-13.15 Y6.336 E3.41069
G1 X-13.344 Y5.937 E3.42424
G1 X-13.709 Y5.139 E3.45106
G1 X-13.925 Y4.618 E3.46829
G1 X-14.02 Y4.354 E3.47687
G1 X-14.289 Y3.564 E3.50237
G1 X-14.44 Y3.065 E3.5183
G1 X-14.52 Y2.753 E3.52814
G1 X-14.7 Y1.992 E3.55204
G1 X-14.813 Y1.415 E3.57001
G1 X-14.856 Y1.131 E3.57878
G1 X-14.956 Y0.409 E3.60106
G1 X-15.019 Y-.271 E3.62192
G1 X-15.06 Y-1.147 E3.64872
G1 X-15.06 Y-1.837 E3.66981
G1 X-15.024 Y-2.631 E3.69409
G1 X-15.013 Y-2.818 E3.69982
G1 X-14.958 Y-3.388 E3.71732
G1 X-14.86 Y-4.11 E3.73958
G1 X-14.806 Y-4.459 E3.75037
G1 X-14.702 Y-4.982 E3.76667
G1 X-14.523 Y-5.743 E3.79056
G1 X-14.294 Y-6.546 E3.81607
G1 X-14.027 Y-7.336 E3.84156
G1 X-13.846 Y-7.818 E3.85729
G1 X-13.713 Y-8.128 E3.8676
G1 X-13.35 Y-8.925 E3.89436
G1 X-12.914 Y-9.774 E3.92352
G1 X-12.481 Y-10.517 E3.9498
G1 X-12.05 Y-11.174 E3.97381
G1 X-11.473 Y-11.962 E4.00366
G1 X-10.985 Y-12.561 E4.02727
G1 X-10.328 Y-13.288 E4.05721
G1 X-9.799 Y-13.818 E4.08009
G1 X-9.072 Y-14.477 E4.11008
G1 X-8.456 Y-14.979 E4.13436
G1 X-7.666 Y-15.556 E4.16425
G1 X-7.021 Y-15.978 E4.18781
G1 X-6.279 Y-16.411 E4.21406
G1 X-5.836 Y-16.65 E4.22944
G1 X-5.436 Y-16.844 E4.24303
G1 X-4.64 Y-17.208 E4.26977
G1 X-4.135 Y-17.418 E4.28648
G1 X-3.854 Y-17.52 E4.29562
G1 X-3.064 Y-17.789 E4.32112
G1 X-2.565 Y-17.94 E4.33705
G1 X-2.253 Y-18.02 E4.3469
G1 X-1.492 Y-18.2 E4.37079
G1 X-.915 Y-18.313 E4.38876
G1 X-.631 Y-18.356 E4.39754
G1 X0.091 Y-18.456 E4.41981
G1 X0.772 Y-18.519 E4.44071
G1 X1.649 Y-18.56 E4.46754
G1 X2.338 Y-18.56 E4.48859
G1 X3.131 Y-18.524 E4.51285
G1 X3.318 Y-18.513 E4.51857
G1 X3.888 Y-18.458 E4.53607
G1 X4.61 Y-18.36 E4.55834
G1 X4.959 Y-18.306 E4.56913
G1 X5.482 Y-18.202 E4.58542
G1 X6.243 Y-18.023 E4.60931
G1 X7.046 Y-17.794 E4.63483
G1 X7.836 Y-17.527 E4.66031
G1 X8.318 Y-17.346 E4.67604
G1 X8.631 Y-17.212 E4.68645
G1 X9.427 Y-16.849 E4.71318
G1 X9.88 Y-16.627 E4.7286
G1 X10.267 Y-16.416 E4.74206
G1 X11.01 Y-15.984 E4.76833
G1 X11.674 Y-15.55 E4.79257
G1 X12.462 Y-14.973 E4.82241
G1 X13.061 Y-14.485 E4.84602
G1 X13.788 Y-13.828 E4.87597
G1 X14.318 Y-13.299 E4.89885
G1 X14.977 Y-12.572 E4.92883
G1 X15.477 Y-11.959 E4.953
G1 X16.053 Y-11.171 E4.98283
G1 X16.476 Y-10.525 E5.00643
G1 X16.91 Y-9.782 E5.03272
G1 X17.15 Y-9.337 E5.04817
G1 X17.346 Y-8.934 E5.06187
G1 X17.71 Y-8.137 E5.08864
G1 X17.918 Y-7.635 E5.10524
G1 X18.02 Y-7.354 E5.11438
G1 X18.289 Y-6.564 E5.13988
G1 X18.44 Y-6.065 E5.15581
G1 X18.52 Y-5.753 E5.16565
G1 X18.7 Y-4.992 E5.18955
G1 X18.813 Y-4.415 E5.20752
G1 X18.855 Y-4.134 E5.2162
G1 X18.955 Y-3.414 E5.23841
G1 X19.019 Y-2.73 E5.2594
G1 X19.06 Y-1.852 E5.28626
G1 X19.06 Y-1.163 E5.30732
G1 X19.024 Y-.369 E5.33161
G1 X19.013 Y-.182 E5.33733
G1 X18.958 Y0.388 E5.35483
G1 X18.86 Y1.11 E5.37709
G1 X18.806 Y1.459 E5.38789
G1 X18.702 Y1.982 E5.40418
G1 X18.523 Y2.743 E5.42807
G1 X18.294 Y3.546 E5.45359
G1 X18.027 Y4.336 E5.47907
G1 X17.846 Y4.818 E5.4948
G1 X17.712 Y5.131 E5.5052
G1 X17.349 Y5.927 E5.53194
G1 X16.916 Y6.769 E5.56087
G1 X16.483 Y7.513 E5.58718
G1 X16.05 Y8.174 E5.61132
G1 X15.473 Y8.962 E5.64117
G1 X14.985 Y9.561 E5.66478
G1 X14.328 Y10.288 E5.69472
G1 X13.799 Y10.818 E5.7176
G1 X13.072 Y11.477 E5.74759
G1 X12.456 Y11.979 E5.77187
G1 X11.666 Y12.556 E5.80176
G1 X11.021 Y12.978 E5.82532
G1 X10.279 Y13.411 E5.85157
G1 X9.836 Y13.65 E5.86695
G1 X9.436 Y13.844 E5.88054
G1 X8.64 Y14.208 E5.90728
G1 X8.135 Y14.418 E5.92399
G1 X7.854 Y14.52 E5.93313
G1 X7.064 Y14.789 E5.95863
G1 X6.565 Y14.94 E5.97456
G1 X6.253 Y15.02 E5.9844
G1 X5.492 Y15.2 E6.0083
G1 X4.915 Y15.313 E6.02627
G1 X4.631 Y15.356 E6.03504
G1 X3.909 Y15.456 E6.05732
G1 X3.228 Y15.519 E6.07822
G1 X2.351 Y15.56 E6.10505
G1 X1.662 Y15.56 E6.1261
G1 X0.869 Y15.524 E6.15036
G1 X0.682 Y15.513 E6.15608
G1 X0.112 Y15.458 E6.17358
G1 X-.61 Y15.36 E6.19584
G1 X-.959 Y15.306 E6.20664
G1 X-1.482 Y15.202 E6.22293
G1 X-2.243 Y15.023 E6.24682
G1 X-3.046 Y14.794 E6.27234
G1 X-3.836 Y14.527 E6.29782
G1 X-4.318 Y14.346 E6.31355
G1 X-4.632 Y14.211 E6.324
G1 X-5.43 Y13.847 E6.3508
G1 X-5.88 Y13.626 E6.36612
G1 X-6.267 Y13.416 E6.37957
G1 X-7.01 Y12.984 E6.40584
G1 X-7.675 Y12.549 E6.43012
G1 X-8.464 Y11.971 E6.46001
G1 X-9.063 Y11.484 E6.4836
G1 X-9.791 Y10.826 E6.51358
G1 X-10.321 Y10.296 E6.53649
G1 X-10.93 Y9.624 E6.5642
G0 F1620 X-10.979 Y9.57
G0 X-11.481 Y8.954
G0 F3600 X-11.198 Y8.748
G1 F1800 X-11.774 Y7.959 E6.59405
G1 X-12.176 Y7.344 E6.6165
G1 X-12.609 Y6.602 E6.64275
G1 X-12.926 Y6.001 E6.66352
G1 X-13.026 Y5.791 E6.67062
G1 X-13.391 Y4.993 E6.69744
G1 X-13.598 Y4.493 E6.71398
G1 X-13.689 Y4.241 E6.72216
G1 X-13.958 Y3.451 E6.74767
G1 X-14.133 Y2.859 E6.76653
G1 X-14.179 Y2.673 E6.77238
G1 X-14.359 Y1.912 E6.79628
G1 X-14.467 Y1.361 E6.81344
G1 X-14.509 Y1.083 E6.82203
G1 X-14.609 Y0.361 E6.8443
G1 X-14.669 Y-.288 E6.86422
G1 X-14.71 Y-1.164 E6.89102
G1 X-14.711 Y-1.821 E6.91109
G1 X-14.675 Y-2.61 E6.93523
G1 X-14.664 Y-2.797 E6.94095
G1 X-14.611 Y-3.341 E6.95766
G1 X-14.513 Y-4.063 E6.97992
G1 X-14.46 Y-4.403 E6.99044
G1 X-14.361 Y-4.902 E7.00598
G1 X-14.182 Y-5.663 E7.02987
G1 X-13.962 Y-6.434 E7.05437
G1 X-13.695 Y-7.224 E7.07985
G1 X-13.395 Y-7.983 E7.10479
G1 X-13.032 Y-8.78 E7.13155
G1 X-12.611 Y-9.598 E7.15967
G1 X-12.178 Y-10.341 E7.18594
G1 X-11.768 Y-10.967 E7.20881
G1 X-11.191 Y-11.755 E7.23866
G1 X-10.725 Y-12.327 E7.2612
G1 X-10.068 Y-13.054 E7.29114
G1 X-9.564 Y-13.559 E7.31295
G1 X-8.837 Y-14.218 E7.34293
G1 X-8.25 Y-14.696 E7.36606
G1 X-7.46 Y-15.273 E7.39596
G1 X-6.844 Y-15.676 E7.41845
G1 X-6.102 Y-16.109 E7.4447
G1 X-5.501 Y-16.426 E7.46547
G1 X-5.291 Y-16.526 E7.47257
G1 X-4.495 Y-16.89 E7.49932
G1 X-4.009 Y-17.092 E7.5154
G1 X-3.741 Y-17.189 E7.52411
G1 X-2.951 Y-17.458 E7.54961
G1 X-2.359 Y-17.633 E7.56848
G1 X-2.173 Y-17.679 E7.57433
G1 X-1.412 Y-17.859 E7.59823
G1 X-.861 Y-17.967 E7.61539
G1 X-.583 Y-18.009 E7.62398
G1 X0.139 Y-18.109 E7.64625
G1 X0.788 Y-18.169 E7.66617
G1 X1.665 Y-18.21 E7.693
G1 X2.322 Y-18.211 E7.71307
G1 X3.11 Y-18.175 E7.73718
G1 X3.297 Y-18.164 E7.7429
G1 X3.841 Y-18.111 E7.7596
G1 X4.563 Y-18.013 E7.78187
G1 X4.903 Y-17.96 E7.79238
G1 X5.402 Y-17.861 E7.80793
G1 X6.163 Y-17.682 E7.83182
G1 X6.934 Y-17.462 E7.85632
G1 X7.724 Y-17.195 E7.8818
G1 X8.486 Y-16.893 E7.90685
G1 X9.282 Y-16.53 E7.93358
G1 X10.091 Y-16.114 E7.96138
G1 X10.834 Y-15.682 E7.98764
G1 X11.467 Y-15.268 E8.01076
G1 X12.255 Y-14.691 E8.0406
G1 X12.827 Y-14.225 E8.06315
G1 X13.554 Y-13.568 E8.09309
G1 X14.059 Y-13.064 E8.11489
G1 X14.718 Y-12.337 E8.14488
G1 X15.194 Y-11.752 E8.16792
G1 X15.77 Y-10.964 E8.19775
G1 X16.173 Y-10.349 E8.22022
G1 X16.607 Y-9.606 E8.24651
G1 X16.926 Y-9.002 E8.26738
G1 X17.028 Y-8.789 E8.2746
G1 X17.392 Y-7.992 E8.30137
G1 X17.592 Y-7.509 E8.31735
G1 X17.689 Y-7.241 E8.32606
G1 X17.958 Y-6.451 E8.35156
G1 X18.133 Y-5.859 E8.37042
G1 X18.179 Y-5.673 E8.37628
G1 X18.359 Y-4.912 E8.40018
G1 X18.467 Y-4.361 E8.41733
G1 X18.509 Y-4.086 E8.42583
G1 X18.609 Y-3.366 E8.44805
G1 X18.669 Y-2.714 E8.46805
G1 X18.71 Y-1.836 E8.49491
G1 X18.711 Y-1.179 E8.51499
G1 X18.675 Y-.39 E8.53913
G1 X18.664 Y-.203 E8.54485
G1 X18.611 Y0.341 E8.56155
G1 X18.513 Y1.063 E8.58382
G1 X18.46 Y1.403 E8.59433
G1 X18.361 Y1.902 E8.60988
G1 X18.182 Y2.663 E8.63377
G1 X17.962 Y3.434 E8.65827
G1 X17.695 Y4.224 E8.68375
G1 X17.393 Y4.986 E8.7088
G1 X17.03 Y5.782 E8.73553
G1 X16.613 Y6.593 E8.7634
G1 X16.18 Y7.337 E8.7897
G1 X15.768 Y7.967 E8.8127
G1 X15.191 Y8.755 E8.84255
G1 X14.725 Y9.327 E8.86509
G1 X14.068 Y10.054 E8.89504
G1 X13.564 Y10.559 E8.91684
G1 X12.837 Y11.218 E8.94682
G1 X12.25 Y11.696 E8.96996
G1 X11.46 Y12.273 E8.99985
G1 X10.844 Y12.676 E9.02234
G1 X10.102 Y13.109 E9.0486
G1 X9.501 Y13.426 E9.06936
G1 X9.291 Y13.526 E9.07647
G1 X8.495 Y13.89 E9.10321
G1 X8.009 Y14.092 E9.1193
G1 X7.741 Y14.189 E9.12801
G1 X6.951 Y14.458 E9.15351
G1 X6.359 Y14.633 E9.17237
G1 X6.173 Y14.679 E9.17823
G1 X5.412 Y14.859 E9.20212
G1 X4.861 Y14.967 E9.21928
G1 X4.583 Y15.009 E9.22787
G1 X3.861 Y15.109 E9.25014
G1 X3.212 Y15.169 E9.27006
G1 X2.335 Y15.21 E9.29689
G1 X1.678 Y15.211 E9.31697
G1 X0.89 Y15.175 E9.34107
G1 X0.703 Y15.164 E9.34679
G1 X0.159 Y15.111 E9.3635
G1 X-.563 Y15.013 E9.38576
G1 X-.903 Y14.96 E9.39628
G1 X-1.402 Y14.861 E9.41182
G1 X-2.163 Y14.682 E9.43571
G1 X-2.934 Y14.462 E9.46021
G1 X-3.724 Y14.195 E9.48569
G1 X-4.487 Y13.893 E9.51077
G1 X-5.285 Y13.529 E9.53757
G1 X-6.091 Y13.114 E9.56527
G1 X-6.834 Y12.682 E9.59154
G1 X-7.468 Y12.267 E9.61469
G1 X-8.257 Y11.689 E9.64458
G1 X-8.828 Y11.224 E9.66708
G1 X-9.556 Y10.566 E9.69707
G1 X-10.061 Y10.061 E9.71889
G1 X-10.645 Y9.417 E9.74546
G0 F1620 X-10.719 Y9.335
G0 X-11.198 Y8.748
G0 F3600 X-10.915 Y8.541
G1 F1800 X-11.491 Y7.752 E9.77531
G1 X-11.874 Y7.168 E9.79665
G1 X-12.307 Y6.426 E9.8229
G1 X-12.612 Y5.846 E9.84293
G1 X-12.708 Y5.646 E9.84971
G1 X-13.073 Y4.848 E9.87652
G1 X-13.271 Y4.367 E9.89242
G1 X-13.358 Y4.128 E9.90019
G1 X-13.627 Y3.338 E9.92569
G1 X-13.794 Y2.769 E9.94381
G1 X-13.839 Y2.592 E9.94939
G1 X-14.019 Y1.831 E9.97329
G1 X-14.121 Y1.307 E9.9896
G1 X-14.162 Y1.035 E9.99801
G1 X-14.262 Y0.313 E10.02028
G1 X-14.32 Y-.304 E10.03922
G1 X-14.361 Y-1.18 E10.06601
G1 X-14.361 Y-1.805 E10.08511
G1 X-14.325 Y-2.59 E10.10913
G1 X-14.314 Y-2.777 E10.11485
G1 X-14.264 Y-3.294 E10.13072
G1 X-14.166 Y-4.016 E10.15299
G1 X-14.021 Y-4.822 E10.17801
G1 X-13.842 Y-5.583 E10.2019
G1 X-13.631 Y-6.322 E10.22539
G1 X-13.364 Y-7.112 E10.25087
