;FLAVOR:Marlin
;TIME:2435
;Filament used: 1.14945m
;Layer height: 0.14
;MINX:-51
;MINY:-14
;MINZ:0.21
;MAXX:49.881
;MAXY:14
;MAXZ:6.51
;Generated with Cura_SteamEngine 4.8.0
M140 S45
M105
M190 S45
M104 S205
M105
M109 S205
M82 ;absolute extrusion mode
;MPMD Basic Calibration Tutorial: 
; https://www.thingiverse.com/thing:3892011 
; 
; If you want to put calibration values in your 
; Start Gcode, put them here. 
; 
;If on stock firmware, at minimum, consider adding 
;M665 R here since there is a firmware bug.  
; 
; Calibration part ends here 
; 
G90 ; switch to absolute positioning 
G92 E0 ; reset extrusion distance 
G1 E20 F200 ; purge 20mm of filament to prime nozzle. 
G92 E0 ; reset extrusion distance 
G4 S5 ; Pause for 5 seconds to allow time for removing extruded filament 
G28 ; start from home position 
G1 E-6 F900 ; retract 6mm of filament before starting the bed leveling process 
G92 E0 ; reset extrusion distance 
G4 S5 ; pause for 5 seconds to allow time for removing extruded filament 
G29 P2 Z0.28 ; Auto-level ; ADJUST Z higher or lower to set first layer height. Start with 0.02 adjustments. 
G1 Z30 ; raise Z 30mm to prepare for priming the nozzle 
G1 E5 F200 ; extrude 5mm of filament to help prime the nozzle just prior to the start of the print 
G92 E0 ; reset extrusion distance 
G4 S5 ; pause for 5 seconds to allow time for cleaning the nozzle and build plate if needed 
G92 E0
G92 E0
G1 F3000 E-4
;LAYER_COUNT:48
;LAYER:0
M107
G0 F3600 X32.875 Y14 Z0.21
;TYPE:SKIRT
G1 F3000 E0
G1 F1800 X-43.125 Y14 E2.32239
G1 X-43.917 Y13.96 E2.34662
G1 X-44.702 Y13.841 E2.37088
G1 X-45.47 Y13.643 E2.39512
G1 X-46.215 Y13.368 E2.41939
G1 X-46.928 Y13.021 E2.44362
G1 X-47.603 Y12.603 E2.46788
G1 X-48.232 Y12.12 E2.49211
G1 X-48.809 Y11.575 E2.51637
G1 X-49.329 Y10.976 E2.5406
G1 X-49.785 Y10.327 E2.56484
G1 X-50.174 Y9.635 E2.5891
G1 X-50.492 Y8.908 E2.61335
G1 X-50.735 Y8.152 E2.63761
G1 X-50.9 Y7.376 E2.66186
G1 X-50.986 Y6.588 E2.68608
G1 X-51 Y6.125 E2.70023
G1 X-51 Y-6.125 E3.07457
G1 X-50.96 Y-6.917 E3.0988
G1 X-50.841 Y-7.702 E3.12306
G1 X-50.643 Y-8.47 E3.1473
G1 X-50.368 Y-9.215 E3.17156
G1 X-50.021 Y-9.928 E3.19579
G1 X-49.603 Y-10.603 E3.22006
G1 X-49.12 Y-11.232 E3.24429
G1 X-48.575 Y-11.809 E3.26854
G1 X-47.976 Y-12.329 E3.29278
G1 X-47.327 Y-12.785 E3.31702
G1 X-46.635 Y-13.174 E3.34128
G1 X-45.908 Y-13.492 E3.36553
G1 X-45.152 Y-13.735 E3.38979
G1 X-44.376 Y-13.9 E3.41403
G1 X-43.588 Y-13.986 E3.43826
G1 X-43.125 Y-14 E3.45241
G1 X32.875 Y-14 E5.7748
G1 X33.667 Y-13.96 E5.79903
G1 X34.452 Y-13.841 E5.8233
G1 X35.22 Y-13.643 E5.84753
G1 X35.965 Y-13.368 E5.8718
G1 X36.678 Y-13.021 E5.89603
G1 X37.353 Y-12.603 E5.92029
G1 X37.982 Y-12.12 E5.94452
G1 X38.559 Y-11.575 E5.96878
G1 X39.079 Y-10.976 E5.99302
G1 X39.535 Y-10.327 E6.01725
G1 X39.809 Y-9.84 E6.03433
G1 X40.531 Y-9.796 E6.05643
G1 X41.314 Y-9.668 E6.08068
G1 X42.08 Y-9.463 E6.10491
G1 X42.801 Y-9.19 E6.12847
G1 X44.467 Y-8.465 E6.18399
G1 X45.178 Y-8.112 E6.20825
G1 X45.85 Y-7.689 E6.23251
G1 X46.475 Y-7.201 E6.25674
G1 X47.049 Y-6.653 E6.28099
G1 X47.564 Y-6.049 E6.30525
G1 X48.016 Y-5.397 E6.32949
G1 X48.4 Y-4.703 E6.35373
G1 X48.636 Y-4.171 E6.37151
G1 X49.319 Y-2.465 E6.42766
G1 X49.576 Y-1.714 E6.45192
G1 X49.757 Y-.942 E6.47615
G1 X49.859 Y-.155 E6.5004
G1 X49.881 Y0.638 E6.52464
G1 X49.823 Y1.43 E6.54891
G1 X49.686 Y2.211 E6.57314
G1 X49.471 Y2.975 E6.59739
G1 X49.317 Y3.393 E6.611
G1 X48.633 Y5.099 E6.66717
G1 X48.301 Y5.819 E6.6914
G1 X47.899 Y6.503 E6.71564
G1 X47.429 Y7.142 E6.73988
G1 X46.897 Y7.732 E6.76416
G1 X46.309 Y8.264 E6.78839
G1 X45.67 Y8.735 E6.81265
G1 X44.988 Y9.139 E6.83687
G1 X44.471 Y9.387 E6.85439
G1 X42.847 Y10.095 E6.90853
G1 X42.105 Y10.375 E6.93276
G1 X41.338 Y10.579 E6.95701
G1 X40.554 Y10.705 E6.98128
G1 X39.602 Y10.75 E7.0104
G1 X39.254 Y10.732 E7.02105
G1 X38.87 Y11.232 E7.04031
G1 X38.325 Y11.809 E7.06457
G1 X37.726 Y12.329 E7.08881
G1 X37.077 Y12.785 E7.11305
G1 X36.385 Y13.174 E7.1373
G1 X35.658 Y13.492 E7.16155
G1 X34.902 Y13.735 E7.18582
G1 X34.126 Y13.9 E7.21006
G1 X33.74 Y13.943 E7.22193
G0 F1620 X33.338 Y13.986
G0 X32.875 Y14
G0 F3600 X32.875 Y13.65
G1 F1800 X-43.125 Y13.65 E9.54432
G1 X-43.9 Y13.61 E9.56803
G1 X-44.666 Y13.491 E9.59172
G1 X-45.416 Y13.293 E9.61542
G1 X-46.142 Y13.019 E9.63913
G1 X-46.835 Y12.672 E9.66282
G1 X-47.489 Y12.255 E9.68652
G1 X-48.097 Y11.773 E9.71023
G1 X-48.652 Y11.231 E9.73393
G1 X-49.149 Y10.635 E9.75765
G1 X-49.581 Y9.991 E9.78134
G1 X-49.944 Y9.306 E9.80503
G1 X-50.236 Y8.587 E9.82875
G1 X-50.451 Y7.842 E9.85244
G1 X-50.589 Y7.079 E9.87614
G1 X-50.65 Y6.125 E9.90535
G1 X-50.65 Y-6.125 E10.27968
G1 X-50.61 Y-6.9 E10.30339
G1 X-50.491 Y-7.666 E10.32708
G1 X-50.293 Y-8.416 E10.35079
G1 X-50.019 Y-9.142 E10.3745
G1 X-49.672 Y-9.835 E10.39818
G1 X-49.255 Y-10.489 E10.42188
G1 X-48.773 Y-11.097 E10.44559
G1 X-48.231 Y-11.652 E10.4693
G1 X-47.635 Y-12.149 E10.49301
G1 X-46.991 Y-12.581 E10.51671
G1 X-46.306 Y-12.944 E10.5404
G1 X-45.587 Y-13.236 E10.56411
G1 X-44.842 Y-13.451 E10.5878
G1 X-44.079 Y-13.589 E10.6115
G1 X-43.125 Y-13.65 E10.64071
G1 X32.875 Y-13.65 E12.9631
G1 X33.65 Y-13.61 E12.98681
G1 X34.416 Y-13.491 E13.0105
G1 X35.166 Y-13.293 E13.0342
G1 X35.892 Y-13.019 E13.05792
G1 X36.585 Y-12.672 E13.0816
G1 X37.239 Y-12.255 E13.1053
G1 X37.847 Y-11.773 E13.12901
G1 X38.402 Y-11.231 E13.15272
G1 X38.899 Y-10.635 E13.17643
G1 X39.331 Y-9.991 E13.20013
G1 X39.598 Y-9.486 E13.21758
G1 X39.805 Y-9.493 E13.22391
G1 X40.578 Y-9.438 E13.24759
G1 X41.342 Y-9.303 E13.2713
G1 X42.088 Y-9.091 E13.295
G1 X42.662 Y-8.869 E13.3138
G1 X44.328 Y-8.144 E13.36933
G1 X45.022 Y-7.798 E13.39302
G1 X45.677 Y-7.383 E13.41672
G1 X46.286 Y-6.902 E13.44043
G1 X46.842 Y-6.362 E13.46412
G1 X47.339 Y-5.766 E13.48783
G1 X47.773 Y-5.123 E13.51153
G1 X48.138 Y-4.439 E13.53523
G1 X48.311 Y-4.041 E13.54849
G1 X48.994 Y-2.335 E13.60464
G1 X49.245 Y-1.601 E13.62835
G1 X49.419 Y-.845 E13.65205
G1 X49.514 Y-0.075 E13.67576
G1 X49.529 Y0.7 E13.69945
G1 X49.465 Y1.473 E13.72315
G1 X49.321 Y2.235 E13.74684
G1 X48.993 Y3.262 E13.77979
G1 X48.309 Y4.968 E13.83595
G1 X47.983 Y5.672 E13.85966
G1 X47.587 Y6.339 E13.88337
G1 X47.124 Y6.962 E13.90708
G1 X46.6 Y7.533 E13.93077
G1 X46.02 Y8.048 E13.95447
G1 X45.39 Y8.5 E13.97816
G1 X44.716 Y8.885 E14.00188
G1 X44.331 Y9.066 E14.01488
G1 X42.707 Y9.774 E14.06902
G1 X41.981 Y10.047 E14.09272
G1 X41.231 Y10.244 E14.11642
G1 X40.464 Y10.362 E14.14013
G1 X39.606 Y10.4 E14.16637
G1 X39.08 Y10.371 E14.18247
G1 X39.005 Y10.489 E14.18674
G1 X38.523 Y11.097 E14.21045
G1 X37.981 Y11.652 E14.23416
G1 X37.385 Y12.149 E14.25787
G1 X36.741 Y12.581 E14.28157
G1 X36.056 Y12.944 E14.30526
G1 X35.337 Y13.236 E14.32897
G1 X34.592 Y13.451 E14.35267
G1 X33.829 Y13.589 E14.37636
G1 X33.742 Y13.595 E14.37903
G0 F1620 X32.875 Y13.65
G0 F3600 X32.875 Y13.3
G1 F1800 X-43.125 Y13.3 E16.70141
G1 X-43.881 Y13.26 E16.72455
G1 X-44.629 Y13.141 E16.74769
G1 X-45.36 Y12.943 E16.77084
G1 X-46.067 Y12.669 E16.79401
G1 X-46.74 Y12.323 E16.81713
G1 X-47.373 Y11.907 E16.84028
G1 X-47.959 Y11.427 E16.86342
G1 X-48.491 Y10.888 E16.88657
G1 X-48.963 Y10.296 E16.9097
G1 X-49.37 Y9.657 E16.93285
G1 X-49.708 Y8.979 E16.956
G1 X-49.972 Y8.27 E16.97912
G1 X-50.16 Y7.536 E17.00227
G1 X-50.269 Y6.787 E17.0254
G1 X-50.3 Y6.125 E17.04565
G1 X-50.3 Y-6.125 E17.41999
G1 X-50.26 Y-6.881 E17.44312
G1 X-50.141 Y-7.629 E17.46627
G1 X-49.943 Y-8.36 E17.48941
G1 X-49.669 Y-9.067 E17.51258
G1 X-49.323 Y-9.74 E17.5357
G1 X-48.907 Y-10.373 E17.55885
G1 X-48.427 Y-10.959 E17.582
G1 X-47.888 Y-11.491 E17.60514
G1 X-47.296 Y-11.963 E17.62827
G1 X-46.657 Y-12.37 E17.65143
G1 X-45.979 Y-12.708 E17.67458
G1 X-45.27 Y-12.972 E17.69769
G1 X-44.536 Y-13.16 E17.72085
G1 X-43.787 Y-13.269 E17.74398
G1 X-43.125 Y-13.3 E17.76423
G1 X32.875 Y-13.3 E20.08662
G1 X33.631 Y-13.26 E20.10975
G1 X34.379 Y-13.141 E20.1329
G1 X35.11 Y-12.943 E20.15604
G1 X35.817 Y-12.669 E20.17921
G1 X36.49 Y-12.323 E20.20233
G1 X37.123 Y-11.907 E20.22548
G1 X37.709 Y-11.427 E20.24863
G1 X38.241 Y-10.888 E20.27177
G1 X38.713 Y-10.296 E20.2949
G1 X39.12 Y-9.657 E20.31805
G1 X39.383 Y-9.129 E20.33608
G1 X39.869 Y-9.141 E20.35094
G1 X40.624 Y-9.079 E20.37408
G1 X41.368 Y-8.937 E20.39723
G1 X42.093 Y-8.718 E20.42037
G1 X42.522 Y-8.548 E20.43447
G1 X44.188 Y-7.823 E20.48999
G1 X44.866 Y-7.485 E20.51314
G1 X45.504 Y-7.077 E20.53629
G1 X46.095 Y-6.604 E20.55942
G1 X46.634 Y-6.071 E20.58258
G1 X47.113 Y-5.485 E20.60571
G1 X47.528 Y-4.851 E20.62886
G1 X47.986 Y-3.911 E20.66082
G1 X48.669 Y-2.205 E20.71697
G1 X48.913 Y-1.488 E20.74011
G1 X49.08 Y-.749 E20.76327
G1 X49.168 Y0.003 E20.7864
G1 X49.177 Y0.76 E20.80954
G1 X49.105 Y1.514 E20.83268
G1 X48.955 Y2.257 E20.85584
G1 X48.668 Y3.132 E20.88398
G1 X47.984 Y4.838 E20.94015
G1 X47.665 Y5.525 E20.9633
G1 X47.276 Y6.175 E20.98644
G1 X46.82 Y6.78 E21.00959
G1 X46.304 Y7.334 E21.03273
G1 X45.731 Y7.83 E21.05589
G1 X45.11 Y8.263 E21.07902
G1 X44.191 Y8.745 E21.11073
G1 X42.567 Y9.453 E21.16487
G1 X41.858 Y9.719 E21.18801
G1 X41.125 Y9.908 E21.21114
G1 X40.376 Y10.019 E21.23428
G1 X39.61 Y10.05 E21.2577
G1 X39.53 Y10.049 E21.26015
G1 X38.897 Y10.008 E21.27953
G1 X38.657 Y10.373 E21.29288
G1 X38.177 Y10.959 E21.31603
G1 X37.638 Y11.491 E21.33917
G1 X37.046 Y11.963 E21.36231
G1 X36.407 Y12.37 E21.38546
G1 X35.729 Y12.708 E21.40861
G1 X35.02 Y12.972 E21.43173
G1 X34.286 Y13.16 E21.45488
G1 X33.741 Y13.24 E21.47171
G0 F1620 X33.537 Y13.269
G0 X32.875 Y13.3
G0 F3600 X32.875 Y12.95
G1 F1800 X-43.125 Y12.95 E23.7941
G1 X-43.863 Y12.91 E23.81669
G1 X-44.591 Y12.791 E23.83923
G1 X-45.303 Y12.593 E23.86181
G1 X-45.989 Y12.32 E23.88437
G1 X-46.642 Y11.974 E23.90695
G1 X-47.254 Y11.56 E23.92953
G1 X-47.817 Y11.082 E23.9521
G1 X-48.325 Y10.546 E23.97467
G1 X-48.772 Y9.958 E23.99724
G1 X-49.153 Y9.325 E24.01981
G1 X-49.464 Y8.655 E24.04239
G1 X-49.7 Y7.955 E24.06496
G1 X-49.859 Y7.234 E24.08752
G1 X-49.94 Y6.499 E24.11012
G1 X-49.95 Y6.125 E24.12155
G1 X-49.95 Y-6.125 E24.49588
G1 X-49.91 Y-6.863 E24.51847
G1 X-49.791 Y-7.591 E24.54101
G1 X-49.593 Y-8.303 E24.56359
G1 X-49.32 Y-8.989 E24.58615
G1 X-48.974 Y-9.642 E24.60873
G1 X-48.56 Y-10.254 E24.63131
G1 X-48.082 Y-10.817 E24.65388
G1 X-47.546 Y-11.325 E24.67645
G1 X-46.958 Y-11.772 E24.69902
G1 X-46.325 Y-12.153 E24.72159
G1 X-45.655 Y-12.464 E24.74417
G1 X-44.955 Y-12.7 E24.76674
G1 X-44.234 Y-12.859 E24.7893
G1 X-43.499 Y-12.94 E24.8119
G1 X-43.125 Y-12.95 E24.82333
G1 X32.875 Y-12.95 E27.14572
G1 X33.613 Y-12.91 E27.1683
G1 X34.341 Y-12.791 E27.19084
G1 X35.053 Y-12.593 E27.21343
G1 X35.739 Y-12.32 E27.23599
G1 X36.392 Y-11.974 E27.25857
G1 X37.004 Y-11.56 E27.28115
G1 X37.567 Y-11.082 E27.30372
G1 X38.075 Y-10.546 E27.32628
G1 X38.522 Y-9.958 E27.34885
G1 X38.903 Y-9.325 E27.37143
G1 X39.159 Y-8.774 E27.39
G1 X39.193 Y-8.778 E27.39104
G1 X39.932 Y-8.789 E27.41363
G1 X40.667 Y-8.719 E27.43619
G1 X41.391 Y-8.571 E27.45877
G1 X42.382 Y-8.227 E27.49083
G1 X44.048 Y-7.502 E27.54635
G1 X44.709 Y-7.171 E27.56894
G1 X45.329 Y-6.771 E27.59148
G1 X45.903 Y-6.306 E27.61406
G1 X46.423 Y-5.781 E27.63664
G1 X46.884 Y-5.204 E27.6592
G1 X47.279 Y-4.58 E27.68177
G1 X47.661 Y-3.781 E27.70883
G1 X48.344 Y-2.075 E27.76499
G1 X48.581 Y-1.375 E27.78757
G1 X48.741 Y-.654 E27.81014
G1 X48.822 Y0.08 E27.83271
G1 X48.824 Y0.819 E27.85529
G1 X48.745 Y1.553 E27.87785
G1 X48.588 Y2.275 E27.90043
G1 X48.343 Y3.002 E27.92387
G1 X47.659 Y4.708 E27.98003
G1 X47.347 Y5.378 E28.00262
G1 X46.965 Y6.01 E28.02518
G1 X46.517 Y6.597 E28.04775
G1 X46.008 Y7.132 E28.07031
G1 X45.444 Y7.609 E28.09289
G1 X44.832 Y8.023 E28.11546
G1 X44.052 Y8.424 E28.14227
G1 X42.428 Y9.132 E28.1964
G1 X41.735 Y9.39 E28.219
G1 X41.019 Y9.572 E28.24157
G1 X40.288 Y9.676 E28.26414
G1 X39.615 Y9.7 E28.28471
G1 X39.535 Y9.699 E28.28716
G1 X38.798 Y9.65 E28.30973
G1 X38.724 Y9.642 E28.312
G1 X38.31 Y10.254 E28.33458
G1 X37.832 Y10.817 E28.35715
G1 X37.296 Y11.325 E28.37972
G1 X36.708 Y11.772 E28.40229
G1 X36.075 Y12.153 E28.42487
G1 X35.405 Y12.464 E28.44744
G1 X34.705 Y12.7 E28.47001
G1 X33.984 Y12.859 E28.49257
G1 X33.74 Y12.886 E28.50007
G0 F1620 X33.249 Y12.94
G0 X32.875 Y12.95
G0 F3600 X32.875 Y12.6
G1 F1800 X-43.125 Y12.6 E30.82246
G1 X-43.843 Y12.56 E30.84444
G1 X-44.553 Y12.441 E30.86644
G1 X-45.245 Y12.243 E30.88843
G1 X-45.91 Y11.97 E30.9104
G1 X-46.542 Y11.625 E30.9324
G1 X-47.131 Y11.212 E30.95438
G1 X-47.67 Y10.736 E30.97636
G1 X-48.154 Y10.204 E30.99833
G1 X-48.575 Y9.621 E31.02031
G1 X-48.929 Y8.994 E31.04231
G1 X-49.212 Y8.333 E31.06428
G1 X-49.419 Y7.644 E31.08627
G1 X-49.549 Y6.936 E31.10826
G1 X-49.6 Y6.125 E31.13309
G1 X-49.6 Y-6.125 E31.50743
G1 X-49.56 Y-6.843 E31.5294
G1 X-49.441 Y-7.553 E31.5514
G1 X-49.243 Y-8.245 E31.57339
G1 X-48.97 Y-8.91 E31.59536
G1 X-48.625 Y-9.542 E31.61736
G1 X-48.212 Y-10.131 E31.63935
G1 X-47.736 Y-10.67 E31.66132
G1 X-47.204 Y-11.154 E31.6833
G1 X-46.621 Y-11.575 E31.70527
G1 X-45.994 Y-11.929 E31.72727
G1 X-45.333 Y-12.212 E31.74925
G1 X-44.644 Y-12.419 E31.77123
G1 X-43.936 Y-12.549 E31.79323
G1 X-43.125 Y-12.6 E31.81806
G1 X32.875 Y-12.6 E34.14045
G1 X33.593 Y-12.56 E34.16242
G1 X34.303 Y-12.441 E34.18442
G1 X34.995 Y-12.243 E34.20642
G1 X35.66 Y-11.97 E34.22838
G1 X36.292 Y-11.625 E34.25038
G1 X36.881 Y-11.212 E34.27237
G1 X37.42 Y-10.736 E34.29434
G1 X37.904 Y-10.204 E34.31632
G1 X38.325 Y-9.621 E34.33829
G1 X38.679 Y-8.994 E34.3603
G1 X38.936 Y-8.394 E34.38024
G1 X39.273 Y-8.433 E34.39061
G1 X39.993 Y-8.435 E34.41261
G1 X40.708 Y-8.358 E34.43458
G1 X41.41 Y-8.203 E34.45655
G1 X42.243 Y-7.906 E34.48358
G1 X43.909 Y-7.181 E34.5391
G1 X44.551 Y-6.858 E34.56106
G1 X45.154 Y-6.465 E34.58305
G1 X45.71 Y-6.008 E34.60505
G1 X46.211 Y-5.492 E34.62702
G1 X46.653 Y-4.924 E34.64902
G1 X47.028 Y-4.31 E34.671
G1 X47.336 Y-3.651 E34.69323
G1 X48.019 Y-1.945 E34.74938
G1 X48.249 Y-1.263 E34.77138
G1 X48.402 Y-.56 E34.79336
G1 X48.476 Y0.156 E34.81536
G1 X48.47 Y0.875 E34.83733
G1 X48.384 Y1.59 E34.85934
G1 X48.22 Y2.29 E34.88131
G1 X48.018 Y2.872 E34.90013
G1 X47.334 Y4.578 E34.9563
G1 X47.03 Y5.229 E34.97825
G1 X46.655 Y5.844 E35.00026
G1 X46.214 Y6.412 E35.02224
G1 X45.713 Y6.929 E35.04424
G1 X45.158 Y7.386 E35.06621
G1 X44.555 Y7.779 E35.0882
G1 X43.912 Y8.103 E35.1102
G1 X42.288 Y8.811 E35.16434
G1 X41.613 Y9.062 E35.18635
G1 X40.915 Y9.236 E35.20833
G1 X40.202 Y9.332 E35.23031
G1 X39.619 Y9.35 E35.24814
G1 X39.539 Y9.349 E35.25058
G1 X38.821 Y9.301 E35.27257
G1 X38.535 Y9.249 E35.28145
G1 X38.375 Y9.542 E35.29165
G1 X37.962 Y10.131 E35.31364
G1 X37.486 Y10.67 E35.33561
G1 X36.954 Y11.154 E35.35759
G1 X36.371 Y11.575 E35.37956
G1 X35.744 Y11.929 E35.40156
G1 X35.083 Y12.212 E35.42354
G1 X34.394 Y12.419 E35.44552
G1 X33.741 Y12.539 E35.46581
G0 F1620 X33.686 Y12.549
G0 X32.875 Y12.6
G0 F3600 X32.875 Y12.25
G1 F1800 X-43.125 Y12.25 E37.7882
G1 X-43.824 Y12.21 E37.80959
G1 X-44.513 Y12.091 E37.83096
G1 X-45.184 Y11.893 E37.85234
G1 X-45.829 Y11.621 E37.87373
G1 X-46.438 Y11.277 E37.8951
G1 X-47.004 Y10.865 E37.91649
G1 X-47.519 Y10.392 E37.93786
G1 X-47.977 Y9.863 E37.95924
G1 X-48.372 Y9.285 E37.98064
G1 X-48.698 Y8.666 E38.00201
G1 X-48.952 Y8.014 E38.0234
G1 X-49.129 Y7.337 E38.04478
G1 X-49.228 Y6.644 E38.06617
G1 X-49.25 Y6.125 E38.08204
G1 X-49.25 Y-6.125 E38.45638
G1 X-49.21 Y-6.824 E38.47777
G1 X-49.091 Y-7.513 E38.49914
G1 X-48.893 Y-8.184 E38.52052
G1 X-48.621 Y-8.829 E38.54191
G1 X-48.277 Y-9.438 E38.56328
G1 X-47.865 Y-10.004 E38.58467
G1 X-47.392 Y-10.519 E38.60604
G1 X-46.863 Y-10.977 E38.62742
G1 X-46.285 Y-11.372 E38.64881
