;FLAVOR:Marlin
;TIME:4391
;Filament used: 2.91132m
;Layer height: 0.14
;MINX:-22.875
;MINY:-32.875
;MINZ:0.21
;MAXX:22.875
;MAXY:32.875
;MAXZ:12.95
;Generated with Cura_SteamEngine 4.8.0
M140 S45
M105
M190 S45
M104 S205
M105
M109 S205
M82 ;absolute extrusion mode
;MPMD Basic Calibration Tutorial: 
; https://www.thingiverse.com/thing:3892011 
; 
; If you want to put calibration values in your 
; Start Gcode, put them here. 
; 
;If on stock firmware, at minimum, consider adding 
;M665 R here since there is a firmware bug.  
; 
; Calibration part ends here 
; 
G90 ; switch to absolute positioning 
G92 E0 ; reset extrusion distance 
G1 E20 F200 ; purge 20mm of filament to prime nozzle. 
G92 E0 ; reset extrusion distance 
G4 S5 ; Pause for 5 seconds to allow time for removing extruded filament 
G28 ; start from home position 
G1 E-6 F900 ; retract 6mm of filament before starting the bed leveling process 
G92 E0 ; reset extrusion distance 
G4 S5 ; pause for 5 seconds to allow time for removing extruded filament 
G29 P2 Z0.28 ; Auto-level ; ADJUST Z higher or lower to set first layer height. Start with 0.02 adjustments. 
G1 Z30 ; raise Z 30mm to prepare for priming the nozzle 
G1 E5 F200 ; extrude 5mm of filament to help prime the nozzle just prior to the start of the print 
G92 E0 ; reset extrusion distance 
G4 S5 ; pause for 5 seconds to allow time for cleaning the nozzle and build plate if needed 
G92 E0
G92 E0
G1 F3000 E-4
;LAYER_COUNT:92
;LAYER:0
M107
G0 F3600 X22.875 Y-25 Z0.21
;TYPE:SKIRT
G1 F3000 E0
G1 F1800 X22.875 Y25 E1.52789
G1 X22.835 Y25.792 E1.55212
G1 X22.716 Y26.577 E1.57638
G1 X22.518 Y27.345 E1.60062
G1 X22.243 Y28.09 E1.62488
G1 X21.896 Y28.803 E1.64912
G1 X21.478 Y29.478 E1.67338
G1 X20.995 Y30.107 E1.69761
G1 X20.45 Y30.684 E1.72186
G1 X19.851 Y31.204 E1.7461
G1 X19.202 Y31.66 E1.77034
G1 X18.51 Y32.049 E1.7946
G1 X17.783 Y32.367 E1.81885
G1 X17.027 Y32.61 E1.84311
G1 X16.251 Y32.775 E1.86736
G1 X15.463 Y32.861 E1.89158
G1 X15 Y32.875 E1.90573
G1 X-15 Y32.875 E2.82247
G1 X-15.792 Y32.835 E2.8467
G1 X-16.577 Y32.716 E2.87096
G1 X-17.345 Y32.518 E2.8952
G1 X-18.09 Y32.243 E2.91946
G1 X-18.803 Y31.896 E2.94369
G1 X-19.478 Y31.478 E2.96795
G1 X-20.107 Y30.995 E2.99219
G1 X-20.684 Y30.45 E3.01644
G1 X-21.204 Y29.851 E3.04068
G1 X-21.66 Y29.202 E3.06492
G1 X-22.049 Y28.51 E3.08918
G1 X-22.367 Y27.783 E3.11342
G1 X-22.61 Y27.027 E3.13769
G1 X-22.775 Y26.251 E3.16193
G1 X-22.861 Y25.463 E3.18616
G1 X-22.875 Y25 E3.20031
G1 X-22.875 Y-25 E4.7282
G1 X-22.835 Y-25.792 E4.75243
G1 X-22.716 Y-26.577 E4.77669
G1 X-22.518 Y-27.345 E4.80093
G1 X-22.243 Y-28.09 E4.8252
G1 X-21.896 Y-28.803 E4.84943
G1 X-21.478 Y-29.478 E4.87369
G1 X-20.995 Y-30.107 E4.89792
G1 X-20.45 Y-30.684 E4.92217
G1 X-19.851 Y-31.204 E4.94641
G1 X-19.202 Y-31.66 E4.97065
G1 X-18.51 Y-32.049 E4.99491
G1 X-17.783 Y-32.367 E5.01916
G1 X-17.027 Y-32.61 E5.04342
G1 X-16.251 Y-32.775 E5.06767
G1 X-15.463 Y-32.861 E5.09189
G1 X-15 Y-32.875 E5.10604
G1 X15 Y-32.875 E6.02278
G1 X15.792 Y-32.835 E6.04701
G1 X16.577 Y-32.716 E6.07127
G1 X17.345 Y-32.518 E6.09551
G1 X18.09 Y-32.243 E6.11977
G1 X18.803 Y-31.896 E6.144
G1 X19.478 Y-31.478 E6.16827
G1 X20.107 Y-30.995 E6.1925
G1 X20.684 Y-30.45 E6.21675
G1 X21.204 Y-29.851 E6.24099
G1 X21.66 Y-29.202 E6.26523
G1 X22.049 Y-28.51 E6.28949
G1 X22.367 Y-27.783 E6.31374
G1 X22.61 Y-27.027 E6.338
G1 X22.775 Y-26.251 E6.36224
G1 X22.818 Y-25.865 E6.37411
G0 F1620 X22.861 Y-25.463
G0 X22.875 Y-25
G0 F3600 X22.525 Y-25
G1 F1800 X22.525 Y25 E7.902
G1 X22.485 Y25.775 E7.92571
G1 X22.366 Y26.541 E7.9494
G1 X22.168 Y27.291 E7.9731
G1 X21.894 Y28.017 E7.99682
G1 X21.547 Y28.71 E8.0205
G1 X21.13 Y29.364 E8.0442
G1 X20.648 Y29.972 E8.06791
G1 X20.106 Y30.527 E8.09162
G1 X19.51 Y31.024 E8.11533
G1 X18.866 Y31.456 E8.13903
G1 X18.181 Y31.819 E8.16272
G1 X17.462 Y32.111 E8.18643
G1 X16.717 Y32.326 E8.21012
G1 X15.954 Y32.464 E8.23382
G1 X15 Y32.525 E8.26303
G1 X-15 Y32.525 E9.17976
G1 X-15.775 Y32.485 E9.20348
G1 X-16.541 Y32.366 E9.22716
G1 X-17.291 Y32.168 E9.25087
G1 X-18.017 Y31.894 E9.27458
G1 X-18.71 Y31.547 E9.29826
G1 X-19.364 Y31.13 E9.32196
G1 X-19.972 Y30.648 E9.34567
G1 X-20.527 Y30.106 E9.36938
G1 X-21.024 Y29.51 E9.39309
G1 X-21.456 Y28.866 E9.41679
G1 X-21.819 Y28.181 E9.44048
G1 X-22.111 Y27.462 E9.46419
G1 X-22.326 Y26.717 E9.48789
G1 X-22.464 Y25.954 E9.51158
G1 X-22.525 Y25 E9.54079
G1 X-22.525 Y-25 E11.06868
G1 X-22.485 Y-25.775 E11.09239
G1 X-22.366 Y-26.541 E11.11608
G1 X-22.168 Y-27.291 E11.13979
G1 X-21.894 Y-28.017 E11.1635
G1 X-21.547 Y-28.71 E11.18718
G1 X-21.13 Y-29.364 E11.21088
G1 X-20.648 Y-29.972 E11.23459
G1 X-20.106 Y-30.527 E11.2583
G1 X-19.51 Y-31.024 E11.28201
G1 X-18.866 Y-31.456 E11.30571
G1 X-18.181 Y-31.819 E11.3294
G1 X-17.462 Y-32.111 E11.35311
G1 X-16.717 Y-32.326 E11.3768
G1 X-15.954 Y-32.464 E11.4005
G1 X-15 Y-32.525 E11.42971
G1 X15 Y-32.525 E12.34644
G1 X15.775 Y-32.485 E12.37016
G1 X16.541 Y-32.366 E12.39384
G1 X17.291 Y-32.168 E12.41755
G1 X18.017 Y-31.894 E12.44126
G1 X18.71 Y-31.547 E12.46494
G1 X19.364 Y-31.13 E12.48864
G1 X19.972 Y-30.648 E12.51235
G1 X20.527 Y-30.106 E12.53606
G1 X21.024 Y-29.51 E12.55977
G1 X21.456 Y-28.866 E12.58347
G1 X21.819 Y-28.181 E12.60716
G1 X22.111 Y-27.462 E12.63087
G1 X22.326 Y-26.717 E12.65457
G1 X22.464 Y-25.954 E12.67826
G1 X22.47 Y-25.867 E12.68093
G0 F1620 X22.525 Y-25
G0 F3600 X22.175 Y-25
G1 F1800 X22.175 Y25 E14.20881
G1 X22.135 Y25.756 E14.23195
G1 X22.016 Y26.504 E14.25509
G1 X21.818 Y27.235 E14.27824
G1 X21.544 Y27.942 E14.30141
G1 X21.198 Y28.615 E14.32453
G1 X20.782 Y29.248 E14.34768
G1 X20.302 Y29.834 E14.37082
G1 X19.763 Y30.366 E14.39396
G1 X19.171 Y30.838 E14.4171
G1 X18.532 Y31.245 E14.44025
G1 X17.854 Y31.583 E14.4634
G1 X17.145 Y31.847 E14.48652
G1 X16.411 Y32.035 E14.50967
G1 X15.662 Y32.144 E14.5328
G1 X15 Y32.175 E14.55305
G1 X-15 Y32.175 E15.46979
G1 X-15.756 Y32.135 E15.49292
G1 X-16.504 Y32.016 E15.51607
G1 X-17.235 Y31.818 E15.53921
G1 X-17.942 Y31.544 E15.56238
G1 X-18.615 Y31.198 E15.5855
G1 X-19.248 Y30.782 E15.60865
G1 X-19.834 Y30.302 E15.6318
G1 X-20.366 Y29.763 E15.65494
G1 X-20.838 Y29.171 E15.67807
G1 X-21.245 Y28.532 E15.70122
G1 X-21.583 Y27.854 E15.72437
G1 X-21.847 Y27.145 E15.74749
G1 X-22.035 Y26.411 E15.77065
G1 X-22.144 Y25.662 E15.79378
G1 X-22.175 Y25 E15.81403
G1 X-22.175 Y-25 E17.34191
G1 X-22.135 Y-25.756 E17.36505
G1 X-22.016 Y-26.504 E17.38819
G1 X-21.818 Y-27.235 E17.41134
G1 X-21.544 Y-27.942 E17.43451
G1 X-21.198 Y-28.615 E17.45763
G1 X-20.782 Y-29.248 E17.48078
G1 X-20.302 Y-29.834 E17.50392
G1 X-19.763 Y-30.366 E17.52707
G1 X-19.171 Y-30.838 E17.5502
G1 X-18.532 Y-31.245 E17.57335
G1 X-17.854 Y-31.583 E17.5965
G1 X-17.145 Y-31.847 E17.61962
G1 X-16.411 Y-32.035 E17.64277
G1 X-15.662 Y-32.144 E17.6659
G1 X-15 Y-32.175 E17.68615
G1 X15 Y-32.175 E18.60289
G1 X15.756 Y-32.135 E18.62602
G1 X16.504 Y-32.016 E18.64917
G1 X17.235 Y-31.818 E18.67231
G1 X17.942 Y-31.544 E18.69548
G1 X18.615 Y-31.198 E18.7186
G1 X19.248 Y-30.782 E18.74175
G1 X19.834 Y-30.302 E18.7649
G1 X20.366 Y-29.763 E18.78804
G1 X20.838 Y-29.171 E18.81117
G1 X21.245 Y-28.532 E18.83433
G1 X21.583 Y-27.854 E18.85748
G1 X21.847 Y-27.145 E18.88059
G1 X22.035 Y-26.411 E18.90375
G1 X22.115 Y-25.866 E18.92058
G0 F1620 X22.144 Y-25.662
G0 X22.175 Y-25
G0 F3600 X21.825 Y-25
G1 F1800 X21.825 Y25 E20.44847
G1 X21.785 Y25.738 E20.47105
G1 X21.666 Y26.466 E20.49359
G1 X21.468 Y27.178 E20.51618
G1 X21.195 Y27.864 E20.53874
G1 X20.849 Y28.517 E20.56132
G1 X20.435 Y29.129 E20.5839
G1 X19.957 Y29.692 E20.60647
G1 X19.421 Y30.2 E20.62903
G1 X18.833 Y30.647 E20.6516
G1 X18.2 Y31.028 E20.67418
G1 X17.53 Y31.339 E20.69675
G1 X16.83 Y31.575 E20.71933
G1 X16.109 Y31.734 E20.74189
G1 X15.374 Y31.815 E20.76448
G1 X15 Y31.825 E20.77592
G1 X-15 Y31.825 E21.69265
G1 X-15.738 Y31.785 E21.71523
G1 X-16.466 Y31.666 E21.73777
G1 X-17.178 Y31.468 E21.76036
G1 X-17.864 Y31.195 E21.78292
G1 X-18.517 Y30.849 E21.8055
G1 X-19.129 Y30.435 E21.82808
G1 X-19.692 Y29.957 E21.85065
G1 X-20.2 Y29.421 E21.87321
G1 X-20.647 Y28.833 E21.89578
G1 X-21.028 Y28.2 E21.91836
G1 X-21.339 Y27.53 E21.94093
G1 X-21.575 Y26.83 E21.96351
G1 X-21.734 Y26.109 E21.98607
G1 X-21.815 Y25.374 E22.00866
G1 X-21.825 Y25 E22.0201
G1 X-21.825 Y-25 E23.54798
G1 X-21.785 Y-25.738 E23.57057
G1 X-21.666 Y-26.466 E23.59311
G1 X-21.468 Y-27.178 E23.61569
G1 X-21.195 Y-27.864 E23.63825
G1 X-20.849 Y-28.517 E23.66084
G1 X-20.435 Y-29.129 E23.68341
G1 X-19.957 Y-29.692 E23.70598
G1 X-19.421 Y-30.2 E23.72855
G1 X-18.833 Y-30.647 E23.75112
G1 X-18.2 Y-31.028 E23.7737
G1 X-17.53 Y-31.339 E23.79627
G1 X-16.83 Y-31.575 E23.81884
G1 X-16.109 Y-31.734 E23.8414
G1 X-15.374 Y-31.815 E23.864
G1 X-15 Y-31.825 E23.87543
G1 X15 Y-31.825 E24.79216
G1 X15.738 Y-31.785 E24.81475
G1 X16.466 Y-31.666 E24.83729
G1 X17.178 Y-31.468 E24.85987
G1 X17.864 Y-31.195 E24.88243
G1 X18.517 Y-30.849 E24.90502
G1 X19.129 Y-30.435 E24.9276
G1 X19.692 Y-29.957 E24.95016
G1 X20.2 Y-29.421 E24.97273
G1 X20.647 Y-28.833 E24.9953
G1 X21.028 Y-28.2 E25.01788
G1 X21.339 Y-27.53 E25.04045
G1 X21.575 Y-26.83 E25.06302
G1 X21.734 Y-26.109 E25.08558
G1 X21.761 Y-25.865 E25.09309
G0 F1620 X21.815 Y-25.374
G0 X21.825 Y-25
G0 F3600 X21.475 Y-25
G1 F1800 X21.475 Y25 E26.62097
G1 X21.435 Y25.718 E26.64295
G1 X21.316 Y26.428 E26.66495
G1 X21.118 Y27.12 E26.68694
G1 X20.845 Y27.785 E26.70891
G1 X20.5 Y28.417 E26.73091
G1 X20.087 Y29.006 E26.75289
G1 X19.611 Y29.545 E26.77487
G1 X19.079 Y30.029 E26.79684
G1 X18.496 Y30.45 E26.81882
G1 X17.869 Y30.804 E26.84082
G1 X17.208 Y31.087 E26.86279
G1 X16.519 Y31.294 E26.88478
G1 X15.811 Y31.424 E26.90677
G1 X15 Y31.475 E26.9316
G1 X-15 Y31.475 E27.84834
G1 X-15.718 Y31.435 E27.87031
G1 X-16.428 Y31.316 E27.89231
G1 X-17.12 Y31.118 E27.9143
G1 X-17.785 Y30.845 E27.93627
G1 X-18.417 Y30.5 E27.95827
G1 X-19.006 Y30.087 E27.98026
G1 X-19.545 Y29.611 E28.00223
G1 X-20.029 Y29.079 E28.02421
G1 X-20.45 Y28.496 E28.04618
G1 X-20.804 Y27.869 E28.06819
G1 X-21.087 Y27.208 E28.09016
G1 X-21.294 Y26.519 E28.11214
G1 X-21.424 Y25.811 E28.13414
G1 X-21.475 Y25 E28.15897
G1 X-21.475 Y-25 E29.68686
G1 X-21.435 Y-25.718 E29.70883
G1 X-21.316 Y-26.428 E29.73083
G1 X-21.118 Y-27.12 E29.75282
G1 X-20.845 Y-27.785 E29.77479
G1 X-20.5 Y-28.417 E29.79679
G1 X-20.087 Y-29.006 E29.81878
G1 X-19.611 Y-29.545 E29.84075
G1 X-19.079 Y-30.029 E29.86273
G1 X-18.496 Y-30.45 E29.8847
G1 X-17.869 Y-30.804 E29.9067
G1 X-17.208 Y-31.087 E29.92868
G1 X-16.519 Y-31.294 E29.95066
G1 X-15.811 Y-31.424 E29.97266
G1 X-15 Y-31.475 E29.99749
G1 X15 Y-31.475 E30.91422
G1 X15.718 Y-31.435 E30.9362
G1 X16.428 Y-31.316 E30.95819
G1 X17.12 Y-31.118 E30.98019
G1 X17.785 Y-30.845 E31.00216
G1 X18.417 Y-30.5 E31.02416
G1 X19.006 Y-30.087 E31.04614
G1 X19.545 Y-29.611 E31.06811
G1 X20.029 Y-29.079 E31.09009
G1 X20.45 Y-28.496 E31.11207
G1 X20.804 Y-27.869 E31.13407
G1 X21.087 Y-27.208 E31.15604
G1 X21.294 Y-26.519 E31.17803
G1 X21.414 Y-25.866 E31.19831
G0 F1620 X21.424 Y-25.811
G0 X21.475 Y-25
G0 F3600 X21.125 Y-25
G1 F1800 X21.125 Y25 E32.7262
G1 X21.085 Y25.699 E32.7476
G1 X20.966 Y26.388 E32.76896
G1 X20.768 Y27.059 E32.79034
G1 X20.496 Y27.704 E32.81173
G1 X20.152 Y28.313 E32.8331
G1 X19.74 Y28.879 E32.8545
G1 X19.267 Y29.394 E32.87586
G1 X18.738 Y29.852 E32.89725
G1 X18.16 Y30.247 E32.91864
G1 X17.541 Y30.573 E32.94002
G1 X16.889 Y30.827 E32.9614
G1 X16.212 Y31.004 E32.98278
G1 X15.519 Y31.103 E33.00417
G1 X15 Y31.125 E33.02005
G1 X-15 Y31.125 E33.93678
G1 X-15.699 Y31.085 E33.95817
G1 X-16.388 Y30.966 E33.97954
G1 X-17.059 Y30.768 E34.00092
G1 X-17.704 Y30.496 E34.02231
G1 X-18.313 Y30.152 E34.04368
G1 X-18.879 Y29.74 E34.06508
G1 X-19.394 Y29.267 E34.08644
G1 X-19.852 Y28.738 E34.10782
G1 X-20.247 Y28.16 E34.12922
G1 X-20.573 Y27.541 E34.1506
G1 X-20.827 Y26.889 E34.17198
G1 X-21.004 Y26.212 E34.19336
G1 X-21.103 Y25.519 E34.21475
G1 X-21.125 Y25 E34.23063
G1 X-21.125 Y-25 E35.75851
G1 X-21.085 Y-25.699 E35.77991
G1 X-20.966 Y-26.388 E35.80127
G1 X-20.768 Y-27.059 E35.82265
G1 X-20.496 Y-27.704 E35.84404
G1 X-20.152 Y-28.313 E35.86542
G1 X-19.74 Y-28.879 E35.88681
G1 X-19.267 Y-29.394 E35.90818
G1 X-18.738 Y-29.852 E35.92956
G1 X-18.16 Y-30.247 E35.95095
G1 X-17.541 Y-30.573 E35.97233
G1 X-16.889 Y-30.827 E35.99371
G1 X-16.212 Y-31.004 E36.01509
G1 X-15.519 Y-31.103 E36.03649
G1 X-15 Y-31.125 E36.05236
G1 X15 Y-31.125 E36.96909
G1 X15.699 Y-31.085 E36.99049
G1 X16.388 Y-30.966 E37.01185
G1 X17.059 Y-30.768 E37.03323
G1 X17.704 Y-30.496 E37.05462
G1 X18.313 Y-30.152 E37.076
G1 X18.879 Y-29.74 E37.09739
G1 X19.394 Y-29.267 E37.11876
G1 X19.852 Y-28.738 E37.14014
G1 X20.247 Y-28.16 E37.16153
G1 X20.573 Y-27.541 E37.18291
G1 X20.827 Y-26.889 E37.20429
G1 X21.004 Y-26.212 E37.22567
G1 X21.054 Y-25.864 E37.23642
G0 F1620 X21.103 Y-25.519
G0 X21.125 Y-25
G0 F3600 X20.775 Y-25
G1 F1800 X20.775 Y25 E38.7643
G1 X20.735 Y25.678 E38.78506
G1 X20.616 Y26.347 E38.80582
G1 X20.419 Y26.997 E38.82658
G1 X20.147 Y27.62 E38.84735
G1 X19.803 Y28.206 E38.86811
G1 X19.393 Y28.748 E38.88888
G1 X18.923 Y29.238 E38.90963
G1 X18.398 Y29.669 E38.93039
G1 X17.826 Y30.036 E38.95115
G1 X17.215 Y30.333 E38.97191
G1 X16.573 Y30.557 E38.99269
G1 X15.91 Y30.703 E39.01344
G1 X15 Y30.775 E39.04133
G1 X-15 Y30.775 E39.95806
G1 X-15.678 Y30.735 E39.97882
G1 X-16.347 Y30.616 E39.99958
G1 X-16.997 Y30.419 E40.02034
G1 X-17.62 Y30.147 E40.04111
G1 X-18.206 Y29.803 E40.06187
G1 X-18.748 Y29.393 E40.08264
G1 X-19.238 Y28.923 E40.10339
G1 X-19.669 Y28.398 E40.12414
G1 X-20.036 Y27.826 E40.14491
G1 X-20.333 Y27.215 E40.16567
G1 X-20.557 Y26.573 E40.18645
G1 X-20.703 Y25.91 E40.20719
G1 X-20.775 Y25 E40.23509
G1 X-20.775 Y-25 E41.76298
G1 X-20.735 Y-25.678 E41.78373
G1 X-20.616 Y-26.347 E41.80449
G1 X-20.419 Y-26.997 E41.82525
G1 X-20.147 Y-27.62 E41.84602
G1 X-19.803 Y-28.206 E41.86679
G1 X-19.393 Y-28.748 E41.88755
G1 X-18.923 Y-29.238 E41.9083
G1 X-18.398 Y-29.669 E41.92906
G1 X-17.826 Y-30.036 E41.94983
G1 X-17.215 Y-30.333 E41.97059
G1 X-16.573 Y-30.557 E41.99136
G1 X-15.91 Y-30.703 E42.01211
G1 X-15 Y-30.775 E42.04
G1 X15 Y-30.775 E42.95674
G1 X15.678 Y-30.735 E42.97749
G1 X16.347 Y-30.616 E42.99825
G1 X16.997 Y-30.419 E43.01901
G1 X17.62 Y-30.147 E43.03978
G1 X18.206 Y-29.803 E43.06055
G1 X18.748 Y-29.393 E43.08131
G1 X19.238 Y-28.923 E43.10206
G1 X19.669 Y-28.398 E43.12282
G1 X20.036 Y-27.826 E43.14358
G1 X20.333 Y-27.215 E43.16434
G1 X20.557 Y-26.573 E43.18512
G1 X20.703 Y-25.91 E43.20587
G1 X20.707 Y-25.866 E43.20722
G0 F1620 X20.775 Y-25
G0 F3600 X20.425 Y-25
G1 F1800 X20.425 Y25 E44.7351
G1 X20.385 Y25.657 E44.75522
G1 X20.266 Y26.305 E44.77535
G1 X20.069 Y26.933 E44.79546
G1 X19.797 Y27.533 E44.81559
G1 X19.455 Y28.096 E44.83572
G1 X19.047 Y28.613 E44.85585
G1 X18.58 Y29.076 E44.87594
G1 X18.059 Y29.48 E44.89609
G1 X17.494 Y29.818 E44.91621
G1 X16.892 Y30.084 E44.93632
G1 X16.262 Y30.276 E44.95645
G1 X15.614 Y30.39 E44.97655
G1 X15 Y30.425 E44.99534
G1 X-15 Y30.425 E45.91208
G1 X-15.657 Y30.385 E45.93219
G1 X-16.305 Y30.266 E45.95232
G1 X-16.933 Y30.069 E45.97244
G1 X-17.533 Y29.797 E45.99257
G1 X-18.096 Y29.455 E46.0127
G1 X-18.613 Y29.047 E46.03282
G1 X-19.076 Y28.58 E46.05292
G1 X-19.48 Y28.059 E46.07306
G1 X-19.818 Y27.494 E46.09318
G1 X-20.084 Y26.892 E46.11329
G1 X-20.276 Y26.262 E46.13342
G1 X-20.39 Y25.614 E46.15352
G1 X-20.425 Y25 E46.17232
G1 X-20.425 Y-25 E47.7002
G1 X-20.385 Y-25.657 E47.72032
G1 X-20.266 Y-26.305 E47.74045
G1 X-20.069 Y-26.933 E47.76056
G1 X-19.797 Y-27.533 E47.78069
G1 X-19.455 Y-28.096 E47.80082
