;FLAVOR:Marlin
;TIME:2277
;Filament used: 1.15961m
;Layer height: 0.14
;MINX:-37.875
;MINY:-15.375
;MINZ:0.21
;MAXX:37.875
;MAXY:15.375
;MAXZ:4.97
;Generated with Cura_SteamEngine 4.8.0
M140 S45
M105
M190 S45
M104 S205
M105
M109 S205
M82 ;absolute extrusion mode
;MPMD Basic Calibration Tutorial: 
; https://www.thingiverse.com/thing:3892011 
; 
; If you want to put calibration values in your 
; Start Gcode, put them here. 
; 
;If on stock firmware, at minimum, consider adding 
;M665 R here since there is a firmware bug.  
; 
; Calibration part ends here 
; 
G90 ; switch to absolute positioning 
G92 E0 ; reset extrusion distance 
G1 E20 F200 ; purge 20mm of filament to prime nozzle. 
G92 E0 ; reset extrusion distance 
G4 S5 ; Pause for 5 seconds to allow time for removing extruded filament 
G28 ; start from home position 
G1 E-6 F900 ; retract 6mm of filament before starting the bed leveling process 
G92 E0 ; reset extrusion distance 
G4 S5 ; pause for 5 seconds to allow time for removing extruded filament 
G29 P2 Z0.28 ; Auto-level ; ADJUST Z higher or lower to set first layer height. Start with 0.02 adjustments. 
G1 Z30 ; raise Z 30mm to prepare for priming the nozzle 
G1 E5 F200 ; extrude 5mm of filament to help prime the nozzle just prior to the start of the print 
G92 E0 ; reset extrusion distance 
G4 S5 ; pause for 5 seconds to allow time for cleaning the nozzle and build plate if needed 
G92 E0
G92 E0
G1 F3000 E-4
;LAYER_COUNT:35
;LAYER:0
M107
G0 F3600 X30 Y15.375 Z0.21
;TYPE:SKIRT
G1 F3000 E0
G1 F1800 X-30 Y15.375 E1.83346
G1 X-30.792 Y15.335 E1.8577
G1 X-31.577 Y15.216 E1.88196
G1 X-32.345 Y15.018 E1.9062
G1 X-33.09 Y14.743 E1.93046
G1 X-33.803 Y14.396 E1.95469
G1 X-34.478 Y13.978 E1.97895
G1 X-35.107 Y13.495 E2.00319
G1 X-35.684 Y12.95 E2.02744
G1 X-36.204 Y12.351 E2.05168
G1 X-36.66 Y11.702 E2.07592
G1 X-37.049 Y11.01 E2.10018
G1 X-37.367 Y10.283 E2.12442
G1 X-37.61 Y9.527 E2.14869
G1 X-37.775 Y8.751 E2.17293
G1 X-37.861 Y7.963 E2.19716
G1 X-37.875 Y7.5 E2.21131
G1 X-37.875 Y-7.5 E2.66968
G1 X-37.835 Y-8.292 E2.69391
G1 X-37.716 Y-9.077 E2.71817
G1 X-37.518 Y-9.845 E2.74241
G1 X-37.243 Y-10.59 E2.76667
G1 X-36.896 Y-11.303 E2.7909
G1 X-36.478 Y-11.978 E2.81517
G1 X-35.995 Y-12.607 E2.8394
G1 X-35.45 Y-13.184 E2.86365
G1 X-34.851 Y-13.704 E2.88789
G1 X-34.202 Y-14.16 E2.91213
G1 X-33.51 Y-14.549 E2.93639
G1 X-32.783 Y-14.867 E2.96064
G1 X-32.027 Y-15.11 E2.9849
G1 X-31.251 Y-15.275 E3.00914
G1 X-30.463 Y-15.361 E3.03337
G1 X-30 Y-15.375 E3.04752
G1 X30 Y-15.375 E4.88099
G1 X30.792 Y-15.335 E4.90522
G1 X31.577 Y-15.216 E4.92948
G1 X32.345 Y-15.018 E4.95372
G1 X33.09 Y-14.743 E4.97798
G1 X33.803 Y-14.396 E5.00221
G1 X34.478 Y-13.978 E5.02648
G1 X35.107 Y-13.495 E5.05071
G1 X35.684 Y-12.95 E5.07496
G1 X36.204 Y-12.351 E5.0992
G1 X36.66 Y-11.702 E5.12344
G1 X37.049 Y-11.01 E5.1477
G1 X37.367 Y-10.283 E5.17195
G1 X37.61 Y-9.527 E5.19621
G1 X37.775 Y-8.751 E5.22045
G1 X37.861 Y-7.963 E5.24468
G1 X37.875 Y-7.5 E5.25883
G1 X37.875 Y7.5 E5.7172
G1 X37.835 Y8.292 E5.74143
G1 X37.716 Y9.077 E5.76569
G1 X37.518 Y9.845 E5.78993
G1 X37.243 Y10.59 E5.8142
G1 X36.896 Y11.303 E5.83843
G1 X36.478 Y11.978 E5.86269
G1 X35.995 Y12.607 E5.88692
G1 X35.45 Y13.184 E5.91117
G1 X34.851 Y13.704 E5.93541
G1 X34.202 Y14.16 E5.95965
G1 X33.51 Y14.549 E5.98391
G1 X32.783 Y14.867 E6.00816
G1 X32.027 Y15.11 E6.03242
G1 X31.251 Y15.275 E6.05667
G1 X30.865 Y15.318 E6.06853
G0 F1620 X30.463 Y15.361
G0 X30 Y15.375
G0 F3600 X30 Y15.025
G1 F1800 X-30 Y15.025 E7.902
G1 X-30.775 Y14.985 E7.92571
G1 X-31.541 Y14.866 E7.9494
G1 X-32.291 Y14.668 E7.9731
G1 X-33.017 Y14.394 E7.99682
G1 X-33.71 Y14.047 E8.0205
G1 X-34.364 Y13.63 E8.0442
G1 X-34.972 Y13.148 E8.06791
G1 X-35.527 Y12.606 E8.09162
G1 X-36.024 Y12.01 E8.11533
G1 X-36.456 Y11.366 E8.13903
G1 X-36.819 Y10.681 E8.16272
G1 X-37.111 Y9.962 E8.18643
G1 X-37.326 Y9.217 E8.21012
G1 X-37.464 Y8.454 E8.23382
G1 X-37.525 Y7.5 E8.26303
G1 X-37.525 Y-7.5 E8.7214
G1 X-37.485 Y-8.275 E8.74511
G1 X-37.366 Y-9.041 E8.7688
G1 X-37.168 Y-9.791 E8.7925
G1 X-36.894 Y-10.517 E8.81621
G1 X-36.547 Y-11.21 E8.8399
G1 X-36.13 Y-11.864 E8.8636
G1 X-35.648 Y-12.472 E8.88731
G1 X-35.106 Y-13.027 E8.91101
G1 X-34.51 Y-13.524 E8.93473
G1 X-33.866 Y-13.956 E8.95842
G1 X-33.181 Y-14.319 E8.98211
G1 X-32.462 Y-14.611 E9.00583
G1 X-31.717 Y-14.826 E9.02952
G1 X-30.954 Y-14.964 E9.05321
G1 X-30 Y-15.025 E9.08243
G1 X30 Y-15.025 E10.91589
G1 X30.775 Y-14.985 E10.93961
G1 X31.541 Y-14.866 E10.96329
G1 X32.291 Y-14.668 E10.987
G1 X33.017 Y-14.394 E11.01071
G1 X33.71 Y-14.047 E11.03439
G1 X34.364 Y-13.63 E11.05809
G1 X34.972 Y-13.148 E11.0818
G1 X35.527 Y-12.606 E11.10551
G1 X36.024 Y-12.01 E11.12922
G1 X36.456 Y-11.366 E11.15292
G1 X36.819 Y-10.681 E11.17661
G1 X37.111 Y-9.962 E11.20032
G1 X37.326 Y-9.217 E11.22402
G1 X37.464 Y-8.454 E11.24771
G1 X37.525 Y-7.5 E11.27692
G1 X37.525 Y7.5 E11.73529
G1 X37.485 Y8.275 E11.759
G1 X37.366 Y9.041 E11.78269
G1 X37.168 Y9.791 E11.80639
G1 X36.894 Y10.517 E11.83011
G1 X36.547 Y11.21 E11.85379
G1 X36.13 Y11.864 E11.87749
G1 X35.648 Y12.472 E11.9012
G1 X35.106 Y13.027 E11.9249
G1 X34.51 Y13.524 E11.94862
G1 X33.866 Y13.956 E11.97231
G1 X33.181 Y14.319 E11.996
G1 X32.462 Y14.611 E12.01972
G1 X31.717 Y14.826 E12.04341
G1 X30.954 Y14.964 E12.06711
G1 X30.867 Y14.97 E12.06977
G0 F1620 X30 Y15.025
G0 F3600 X30 Y14.675
G1 F1800 X-30 Y14.675 E13.90324
G1 X-30.756 Y14.635 E13.92637
G1 X-31.504 Y14.516 E13.94951
G1 X-32.235 Y14.318 E13.97266
G1 X-32.942 Y14.044 E13.99583
G1 X-33.615 Y13.698 E14.01895
G1 X-34.248 Y13.282 E14.0421
G1 X-34.834 Y12.802 E14.06525
G1 X-35.366 Y12.263 E14.08839
G1 X-35.838 Y11.671 E14.11152
G1 X-36.245 Y11.032 E14.13467
G1 X-36.583 Y10.354 E14.15782
G1 X-36.847 Y9.645 E14.18094
G1 X-37.035 Y8.911 E14.2041
G1 X-37.144 Y8.162 E14.22723
G1 X-37.175 Y7.5 E14.24748
G1 X-37.175 Y-7.5 E14.70584
G1 X-37.135 Y-8.256 E14.72898
G1 X-37.016 Y-9.004 E14.75212
G1 X-36.818 Y-9.735 E14.77526
G1 X-36.544 Y-10.442 E14.79843
G1 X-36.198 Y-11.115 E14.82156
G1 X-35.782 Y-11.748 E14.8447
G1 X-35.302 Y-12.334 E14.86785
G1 X-34.763 Y-12.866 E14.89099
G1 X-34.171 Y-13.338 E14.91413
G1 X-33.532 Y-13.745 E14.93728
G1 X-32.854 Y-14.083 E14.96043
G1 X-32.145 Y-14.347 E14.98355
G1 X-31.411 Y-14.535 E15.0067
G1 X-30.662 Y-14.644 E15.02983
G1 X-30 Y-14.675 E15.05008
G1 X30 Y-14.675 E16.88355
G1 X30.756 Y-14.635 E16.90668
G1 X31.504 Y-14.516 E16.92983
G1 X32.235 Y-14.318 E16.95297
G1 X32.942 Y-14.044 E16.97614
G1 X33.615 Y-13.698 E16.99926
G1 X34.248 Y-13.282 E17.02241
G1 X34.834 Y-12.802 E17.04556
G1 X35.366 Y-12.263 E17.0687
G1 X35.838 Y-11.671 E17.09184
G1 X36.245 Y-11.032 E17.11499
G1 X36.583 Y-10.354 E17.13814
G1 X36.847 Y-9.645 E17.16126
G1 X37.035 Y-8.911 E17.18441
G1 X37.144 Y-8.162 E17.20754
G1 X37.175 Y-7.5 E17.22779
G1 X37.175 Y7.5 E17.68615
G1 X37.135 Y8.256 E17.70929
G1 X37.016 Y9.004 E17.73243
G1 X36.818 Y9.735 E17.75558
G1 X36.544 Y10.442 E17.77875
G1 X36.198 Y11.115 E17.80187
G1 X35.782 Y11.748 E17.82502
G1 X35.302 Y12.334 E17.84816
G1 X34.763 Y12.866 E17.87131
G1 X34.171 Y13.338 E17.89444
G1 X33.532 Y13.745 E17.91759
G1 X32.854 Y14.083 E17.94074
G1 X32.145 Y14.347 E17.96386
G1 X31.411 Y14.535 E17.98702
G1 X30.866 Y14.615 E18.00385
G0 F1620 X30.662 Y14.644
G0 X30 Y14.675
G0 F3600 X30 Y14.325
G1 F1800 X-30 Y14.325 E19.83731
G1 X-30.738 Y14.285 E19.8599
G1 X-31.466 Y14.166 E19.88244
G1 X-32.178 Y13.968 E19.90502
G1 X-32.864 Y13.695 E19.92758
G1 X-33.517 Y13.349 E19.95017
G1 X-34.129 Y12.935 E19.97274
G1 X-34.692 Y12.457 E19.99531
G1 X-35.2 Y11.921 E20.01788
G1 X-35.647 Y11.333 E20.04045
G1 X-36.028 Y10.7 E20.06303
G1 X-36.339 Y10.03 E20.0856
G1 X-36.575 Y9.33 E20.10817
G1 X-36.734 Y8.609 E20.13073
G1 X-36.815 Y7.874 E20.15333
G1 X-36.825 Y7.5 E20.16476
G1 X-36.825 Y-7.5 E20.62313
G1 X-36.785 Y-8.238 E20.64571
G1 X-36.666 Y-8.966 E20.66825
G1 X-36.468 Y-9.678 E20.69084
G1 X-36.195 Y-10.364 E20.7134
G1 X-35.849 Y-11.017 E20.73598
G1 X-35.435 Y-11.629 E20.75856
G1 X-34.957 Y-12.192 E20.78113
G1 X-34.421 Y-12.7 E20.80369
G1 X-33.833 Y-13.147 E20.82626
G1 X-33.2 Y-13.528 E20.84884
G1 X-32.53 Y-13.839 E20.87141
G1 X-31.83 Y-14.075 E20.89398
G1 X-31.109 Y-14.234 E20.91655
G1 X-30.374 Y-14.315 E20.93914
G1 X-30 Y-14.325 E20.95058
G1 X30 Y-14.325 E22.78404
G1 X30.738 Y-14.285 E22.80662
G1 X31.466 Y-14.166 E22.82917
G1 X32.178 Y-13.968 E22.85175
G1 X32.864 Y-13.695 E22.87431
G1 X33.517 Y-13.349 E22.89689
G1 X34.129 Y-12.935 E22.91947
G1 X34.692 Y-12.457 E22.94204
G1 X35.2 Y-11.921 E22.96461
G1 X35.647 Y-11.333 E22.98718
G1 X36.028 Y-10.7 E23.00975
G1 X36.339 Y-10.03 E23.03232
G1 X36.575 Y-9.33 E23.0549
G1 X36.734 Y-8.609 E23.07746
G1 X36.815 Y-7.874 E23.10006
G1 X36.825 Y-7.5 E23.11149
G1 X36.825 Y7.5 E23.56985
G1 X36.785 Y8.238 E23.59244
G1 X36.666 Y8.966 E23.61498
G1 X36.468 Y9.678 E23.63756
G1 X36.195 Y10.364 E23.66012
G1 X35.849 Y11.017 E23.68271
G1 X35.435 Y11.629 E23.70529
G1 X34.957 Y12.192 E23.72785
G1 X34.421 Y12.7 E23.75042
G1 X33.833 Y13.147 E23.77299
G1 X33.2 Y13.528 E23.79557
G1 X32.53 Y13.839 E23.81814
G1 X31.83 Y14.075 E23.84071
G1 X31.109 Y14.234 E23.86327
G1 X30.865 Y14.261 E23.87078
G0 F1620 X30.374 Y14.315
G0 X30 Y14.325
G0 F3600 X30 Y13.975
G1 F1800 X-30 Y13.975 E25.70424
G1 X-30.718 Y13.935 E25.72621
G1 X-31.428 Y13.816 E25.74821
G1 X-32.12 Y13.618 E25.77021
G1 X-32.785 Y13.345 E25.79217
G1 X-33.417 Y13 E25.81418
G1 X-34.006 Y12.587 E25.83616
G1 X-34.545 Y12.111 E25.85813
G1 X-35.029 Y11.579 E25.88011
G1 X-35.45 Y10.996 E25.90209
G1 X-35.804 Y10.369 E25.92409
G1 X-36.087 Y9.708 E25.94606
G1 X-36.294 Y9.019 E25.96804
G1 X-36.424 Y8.311 E25.99004
G1 X-36.475 Y7.5 E26.01487
G1 X-36.475 Y-7.5 E26.47324
G1 X-36.435 Y-8.218 E26.49521
G1 X-36.316 Y-8.928 E26.51721
G1 X-36.118 Y-9.62 E26.53921
G1 X-35.845 Y-10.285 E26.56117
G1 X-35.5 Y-10.917 E26.58318
G1 X-35.087 Y-11.506 E26.60516
G1 X-34.611 Y-12.045 E26.62713
G1 X-34.079 Y-12.529 E26.64911
G1 X-33.496 Y-12.95 E26.67108
G1 X-32.869 Y-13.304 E26.69309
G1 X-32.208 Y-13.587 E26.71506
G1 X-31.519 Y-13.794 E26.73704
G1 X-30.811 Y-13.924 E26.75904
G1 X-30 Y-13.975 E26.78387
G1 X30 Y-13.975 E28.61734
G1 X30.718 Y-13.935 E28.63931
G1 X31.428 Y-13.816 E28.66131
G1 X32.12 Y-13.618 E28.6833
G1 X32.785 Y-13.345 E28.70527
G1 X33.417 Y-13 E28.72727
G1 X34.006 Y-12.587 E28.74925
G1 X34.545 Y-12.111 E28.77123
G1 X35.029 Y-11.579 E28.79321
G1 X35.45 Y-10.996 E28.81518
G1 X35.804 Y-10.369 E28.83718
G1 X36.087 Y-9.708 E28.85916
G1 X36.294 Y-9.019 E28.88114
G1 X36.424 Y-8.311 E28.90314
G1 X36.475 Y-7.5 E28.92797
G1 X36.475 Y7.5 E29.38633
G1 X36.435 Y8.218 E29.40831
G1 X36.316 Y8.928 E29.43031
G1 X36.118 Y9.62 E29.4523
G1 X35.845 Y10.285 E29.47427
G1 X35.5 Y10.917 E29.49627
G1 X35.087 Y11.506 E29.51825
G1 X34.611 Y12.045 E29.54023
G1 X34.079 Y12.529 E29.5622
G1 X33.496 Y12.95 E29.58418
G1 X32.869 Y13.304 E29.60618
G1 X32.208 Y13.587 E29.62815
G1 X31.519 Y13.794 E29.65014
G1 X30.866 Y13.914 E29.67043
G0 F1620 X30.811 Y13.924
G0 X30 Y13.975
G0 F3600 X30 Y13.625
G1 F1800 X-30 Y13.625 E31.50389
G1 X-30.699 Y13.585 E31.52529
G1 X-31.388 Y13.466 E31.54665
G1 X-32.059 Y13.268 E31.56803
G1 X-32.704 Y12.996 E31.58942
G1 X-33.313 Y12.652 E31.61079
G1 X-33.879 Y12.24 E31.63219
G1 X-34.394 Y11.767 E31.65355
G1 X-34.852 Y11.238 E31.67494
G1 X-35.247 Y10.66 E31.69633
G1 X-35.573 Y10.041 E31.71771
G1 X-35.827 Y9.389 E31.73909
G1 X-36.004 Y8.712 E31.76047
G1 X-36.103 Y8.019 E31.78186
G1 X-36.125 Y7.5 E31.79774
G1 X-36.125 Y-7.5 E32.2561
G1 X-36.085 Y-8.199 E32.2775
G1 X-35.966 Y-8.888 E32.29886
G1 X-35.768 Y-9.559 E32.32024
G1 X-35.496 Y-10.204 E32.34163
G1 X-35.152 Y-10.813 E32.36301
G1 X-34.74 Y-11.379 E32.3844
G1 X-34.267 Y-11.894 E32.40577
G1 X-33.738 Y-12.352 E32.42715
G1 X-33.16 Y-12.747 E32.44854
G1 X-32.541 Y-13.073 E32.46992
G1 X-31.889 Y-13.327 E32.4913
G1 X-31.212 Y-13.504 E32.51268
G1 X-30.519 Y-13.603 E32.53408
G1 X-30 Y-13.625 E32.54995
G1 X30 Y-13.625 E34.38341
G1 X30.699 Y-13.585 E34.40481
G1 X31.388 Y-13.466 E34.42618
G1 X32.059 Y-13.268 E34.44755
G1 X32.704 Y-12.996 E34.46894
G1 X33.313 Y-12.652 E34.49032
G1 X33.879 Y-12.24 E34.51171
G1 X34.394 Y-11.767 E34.53308
G1 X34.852 Y-11.238 E34.55446
G1 X35.247 Y-10.66 E34.57585
G1 X35.573 Y-10.041 E34.59723
G1 X35.827 Y-9.389 E34.61861
G1 X36.004 Y-8.712 E34.64
G1 X36.103 Y-8.019 E34.66139
G1 X36.125 Y-7.5 E34.67726
G1 X36.125 Y7.5 E35.13563
G1 X36.085 Y8.199 E35.15702
G1 X35.966 Y8.888 E35.17839
G1 X35.768 Y9.559 E35.19977
G1 X35.496 Y10.204 E35.22116
G1 X35.152 Y10.813 E35.24253
G1 X34.74 Y11.379 E35.26392
G1 X34.267 Y11.894 E35.28529
G1 X33.738 Y12.352 E35.30667
G1 X33.16 Y12.747 E35.32807
G1 X32.541 Y13.073 E35.34944
G1 X31.889 Y13.327 E35.37083
G1 X31.212 Y13.504 E35.39221
G1 X30.864 Y13.554 E35.40295
G0 F1620 X30.519 Y13.603
G0 X30 Y13.625
G0 F3600 X30 Y13.275
G1 F1800 X-30 Y13.275 E37.23642
G1 X-30.678 Y13.235 E37.25717
G1 X-31.347 Y13.116 E37.27793
G1 X-31.997 Y12.919 E37.29869
G1 X-32.62 Y12.647 E37.31946
G1 X-33.206 Y12.303 E37.34023
G1 X-33.748 Y11.893 E37.36099
G1 X-34.238 Y11.423 E37.38174
G1 X-34.669 Y10.898 E37.4025
G1 X-35.036 Y10.326 E37.42327
G1 X-35.333 Y9.715 E37.44403
G1 X-35.557 Y9.073 E37.4648
G1 X-35.703 Y8.41 E37.48555
G1 X-35.775 Y7.5 E37.51344
G1 X-35.775 Y-7.5 E37.97181
G1 X-35.735 Y-8.178 E37.99256
G1 X-35.616 Y-8.847 E38.01333
G1 X-35.419 Y-9.497 E38.03408
G1 X-35.147 Y-10.12 E38.05485
G1 X-34.803 Y-10.706 E38.07562
G1 X-34.393 Y-11.248 E38.09639
G1 X-33.923 Y-11.738 E38.11713
G1 X-33.398 Y-12.169 E38.13789
G1 X-32.826 Y-12.536 E38.15866
G1 X-32.215 Y-12.833 E38.17942
G1 X-31.573 Y-13.057 E38.2002
G1 X-30.91 Y-13.203 E38.22094
G1 X-30 Y-13.275 E38.24884
G1 X30 Y-13.275 E40.0823
G1 X30.678 Y-13.235 E40.10305
G1 X31.347 Y-13.116 E40.12382
G1 X31.997 Y-12.919 E40.14457
G1 X32.62 Y-12.647 E40.16535
G1 X33.206 Y-12.303 E40.18611
G1 X33.748 Y-11.893 E40.20688
G1 X34.238 Y-11.423 E40.22763
G1 X34.669 Y-10.898 E40.24838
G1 X35.036 Y-10.326 E40.26915
G1 X35.333 Y-9.715 E40.28991
G1 X35.557 Y-9.073 E40.31069
G1 X35.703 Y-8.41 E40.33143
G1 X35.775 Y-7.5 E40.35933
G1 X35.775 Y7.5 E40.81769
G1 X35.735 Y8.178 E40.83845
G1 X35.616 Y8.847 E40.85921
G1 X35.419 Y9.497 E40.87997
G1 X35.147 Y10.12 E40.90074
G1 X34.803 Y10.706 E40.9215
G1 X34.393 Y11.248 E40.94227
G1 X33.923 Y11.738 E40.96302
G1 X33.398 Y12.169 E40.98377
G1 X32.826 Y12.536 E41.00454
G1 X32.215 Y12.833 E41.0253
G1 X31.573 Y13.057 E41.04608
G1 X30.91 Y13.203 E41.06682
G1 X30.866 Y13.207 E41.06817
G0 F1620 X30 Y13.275
G0 F3600 X30 Y12.925
G1 F1800 X-30 Y12.925 E42.90164
G1 X-30.657 Y12.885 E42.92175
G1 X-31.305 Y12.766 E42.94189
G1 X-31.933 Y12.569 E42.962
G1 X-32.533 Y12.297 E42.98213
G1 X-33.096 Y11.955 E43.00226
G1 X-33.613 Y11.547 E43.02238
G1 X-34.076 Y11.08 E43.04248
G1 X-34.48 Y10.559 E43.06262
G1 X-34.818 Y9.994 E43.08274
G1 X-35.084 Y9.392 E43.10286
G1 X-35.276 Y8.762 E43.12298
G1 X-35.39 Y8.114 E43.14309
G1 X-35.425 Y7.5 E43.16188
G1 X-35.425 Y-7.5 E43.62025
G1 X-35.385 Y-8.157 E43.64036
G1 X-35.266 Y-8.805 E43.66049
G1 X-35.069 Y-9.433 E43.6806
G1 X-34.797 Y-10.033 E43.70073
G1 X-34.455 Y-10.596 E43.72086
G1 X-34.047 Y-11.113 E43.74099
G1 X-33.58 Y-11.576 E43.76108
G1 X-33.059 Y-11.98 E43.78123
G1 X-32.494 Y-12.318 E43.80135
G1 X-31.892 Y-12.584 E43.82146
G1 X-31.262 Y-12.776 E43.84159
G1 X-30.614 Y-12.89 E43.86169
G1 X-30 Y-12.925 E43.88049
G1 X30 Y-12.925 E45.71395
G1 X30.657 Y-12.885 E45.73406
G1 X31.305 Y-12.766 E45.7542
G1 X31.933 Y-12.569 E45.77431
G1 X32.533 Y-12.297 E45.79444
G1 X33.096 Y-11.955 E45.81457
G1 X33.613 Y-11.547 E45.83469
G1 X34.076 Y-11.08 E45.85479
