;FLAVOR:Marlin
;TIME:7418
;Filament used: 4.83437m
;Layer height: 0.14
;MINX:-30.375
;MINY:-22.875
;MINZ:0.21
;MAXX:35.375
;MAXY:22.875
;MAXZ:29.89
;Generated with Cura_SteamEngine 4.8.0
M140 S45
M105
M190 S45
M104 S205
M105
M109 S205
M82 ;absolute extrusion mode
;MPMD Basic Calibration Tutorial: 
; https://www.thingiverse.com/thing:3892011 
; 
; If you want to put calibration values in your 
; Start Gcode, put them here. 
; 
;If on stock firmware, at minimum, consider adding 
;M665 R here since there is a firmware bug.  
; 
; Calibration part ends here 
; 
G90 ; switch to absolute positioning 
G92 E0 ; reset extrusion distance 
G1 E20 F200 ; purge 20mm of filament to prime nozzle. 
G92 E0 ; reset extrusion distance 
G4 S5 ; Pause for 5 seconds to allow time for removing extruded filament 
G28 ; start from home position 
G1 E-6 F900 ; retract 6mm of filament before starting the bed leveling process 
G92 E0 ; reset extrusion distance 
G4 S5 ; pause for 5 seconds to allow time for removing extruded filament 
G29 P2 Z0.28 ; Auto-level ; ADJUST Z higher or lower to set first layer height. Start with 0.02 adjustments. 
G1 Z30 ; raise Z 30mm to prepare for priming the nozzle 
G1 E5 F200 ; extrude 5mm of filament to help prime the nozzle just prior to the start of the print 
G92 E0 ; reset extrusion distance 
G4 S5 ; pause for 5 seconds to allow time for cleaning the nozzle and build plate if needed 
G92 E0
G92 E0
G1 F3000 E-4
;LAYER_COUNT:213
;LAYER:0
M107
G0 F3600 X-22.5 Y22.875 Z0.21
;TYPE:SKIRT
G1 F3000 E0
G1 F1800 X-23.292 Y22.835 E0.02423
G1 X-24.077 Y22.716 E0.04849
G1 X-24.845 Y22.518 E0.07273
G1 X-25.59 Y22.243 E0.097
G1 X-26.303 Y21.896 E0.12123
G1 X-26.978 Y21.478 E0.14549
G1 X-27.607 Y20.995 E0.16972
G1 X-28.184 Y20.45 E0.19398
G1 X-28.704 Y19.851 E0.21822
G1 X-29.16 Y19.202 E0.24245
G1 X-29.549 Y18.51 E0.26671
G1 X-29.867 Y17.783 E0.29096
G1 X-30.11 Y17.027 E0.31523
G1 X-30.275 Y16.251 E0.33947
G1 X-30.361 Y15.463 E0.36369
G1 X-30.375 Y15 E0.37785
G1 X-30.375 Y-15 E1.29458
G1 X-30.335 Y-15.792 E1.31881
G1 X-30.216 Y-16.577 E1.34307
G1 X-30.018 Y-17.345 E1.36731
G1 X-29.743 Y-18.09 E1.39157
G1 X-29.396 Y-18.803 E1.41581
G1 X-28.978 Y-19.478 E1.44007
G1 X-28.495 Y-20.107 E1.4643
G1 X-27.95 Y-20.684 E1.48855
G1 X-27.351 Y-21.204 E1.51279
G1 X-26.702 Y-21.66 E1.53703
G1 X-26.01 Y-22.049 E1.56129
G1 X-25.283 Y-22.367 E1.58554
G1 X-24.527 Y-22.61 E1.6098
G1 X-23.751 Y-22.775 E1.63405
G1 X-22.963 Y-22.861 E1.65827
G1 X-22.5 Y-22.875 E1.67242
G1 X27.5 Y-22.875 E3.20031
G1 X28.292 Y-22.835 E3.22454
G1 X29.077 Y-22.716 E3.2488
G1 X29.845 Y-22.518 E3.27304
G1 X30.59 Y-22.243 E3.29731
G1 X31.303 Y-21.896 E3.32154
G1 X31.978 Y-21.478 E3.3458
G1 X32.607 Y-20.995 E3.37003
G1 X33.184 Y-20.45 E3.39429
G1 X33.704 Y-19.851 E3.41853
G1 X34.16 Y-19.202 E3.44276
G1 X34.549 Y-18.51 E3.46702
G1 X34.867 Y-17.783 E3.49127
G1 X35.11 Y-17.027 E3.51554
G1 X35.275 Y-16.251 E3.53978
G1 X35.361 Y-15.463 E3.564
G1 X35.375 Y-15 E3.57816
G1 X35.375 Y15 E4.49489
G1 X35.335 Y15.792 E4.51912
G1 X35.216 Y16.577 E4.54338
G1 X35.018 Y17.345 E4.56762
G1 X34.743 Y18.09 E4.59189
G1 X34.396 Y18.803 E4.61612
G1 X33.978 Y19.478 E4.64038
G1 X33.495 Y20.107 E4.66461
G1 X32.95 Y20.684 E4.68886
G1 X32.351 Y21.204 E4.7131
G1 X31.702 Y21.66 E4.73734
G1 X31.01 Y22.049 E4.7616
G1 X30.283 Y22.367 E4.78585
G1 X29.527 Y22.61 E4.81011
G1 X28.751 Y22.775 E4.83436
G1 X27.963 Y22.861 E4.85858
G1 X27.5 Y22.875 E4.87273
G1 X-21.632 Y22.875 E6.3741
G0 F1620 X-22.5 Y22.875
G0 F3600 X-22.5 Y22.525
G1 F1800 X-23.275 Y22.485 E6.39781
G1 X-24.041 Y22.366 E6.4215
G1 X-24.791 Y22.168 E6.4452
G1 X-25.517 Y21.894 E6.46891
G1 X-26.21 Y21.547 E6.4926
G1 X-26.864 Y21.13 E6.5163
G1 X-27.472 Y20.648 E6.54001
G1 X-28.027 Y20.106 E6.56371
G1 X-28.524 Y19.51 E6.58743
G1 X-28.956 Y18.866 E6.61112
G1 X-29.319 Y18.181 E6.63481
G1 X-29.611 Y17.462 E6.65853
G1 X-29.826 Y16.717 E6.68222
G1 X-29.964 Y15.954 E6.70592
G1 X-30.025 Y15 E6.73513
G1 X-30.025 Y-15 E7.65186
G1 X-29.985 Y-15.775 E7.67557
G1 X-29.866 Y-16.541 E7.69926
G1 X-29.668 Y-17.291 E7.72296
G1 X-29.394 Y-18.017 E7.74668
G1 X-29.047 Y-18.71 E7.77036
G1 X-28.63 Y-19.364 E7.79406
G1 X-28.148 Y-19.972 E7.81777
G1 X-27.606 Y-20.527 E7.84148
G1 X-27.01 Y-21.024 E7.86519
G1 X-26.366 Y-21.456 E7.88889
G1 X-25.681 Y-21.819 E7.91258
G1 X-24.962 Y-22.111 E7.93629
G1 X-24.217 Y-22.326 E7.95998
G1 X-23.454 Y-22.464 E7.98368
G1 X-22.5 Y-22.525 E8.01289
G1 X27.5 Y-22.525 E9.54078
G1 X28.275 Y-22.485 E9.56449
G1 X29.041 Y-22.366 E9.58818
G1 X29.791 Y-22.168 E9.61188
G1 X30.517 Y-21.894 E9.6356
G1 X31.21 Y-21.547 E9.65928
G1 X31.864 Y-21.13 E9.68298
G1 X32.472 Y-20.648 E9.70669
G1 X33.027 Y-20.106 E9.73039
G1 X33.524 Y-19.51 E9.75411
G1 X33.956 Y-18.866 E9.7778
G1 X34.319 Y-18.181 E9.80149
G1 X34.611 Y-17.462 E9.82521
G1 X34.826 Y-16.717 E9.8489
G1 X34.964 Y-15.954 E9.8726
G1 X35.025 Y-15 E9.90181
G1 X35.025 Y15 E10.81854
G1 X34.985 Y15.775 E10.84225
G1 X34.866 Y16.541 E10.86594
G1 X34.668 Y17.291 E10.88965
G1 X34.394 Y18.017 E10.91336
G1 X34.047 Y18.71 E10.93704
G1 X33.63 Y19.364 E10.96074
G1 X33.148 Y19.972 E10.98445
G1 X32.606 Y20.527 E11.00816
G1 X32.01 Y21.024 E11.03187
G1 X31.366 Y21.456 E11.05557
G1 X30.681 Y21.819 E11.07926
G1 X29.962 Y22.111 E11.10297
G1 X29.217 Y22.326 E11.12666
G1 X28.454 Y22.464 E11.15036
G1 X27.5 Y22.525 E11.17957
G1 X-21.632 Y22.525 E12.68093
G0 F1620 X-22.5 Y22.525
G0 F3600 X-22.5 Y22.175
G1 F1800 X-23.256 Y22.135 E12.70407
G1 X-24.004 Y22.016 E12.72721
G1 X-24.735 Y21.818 E12.75036
G1 X-25.442 Y21.544 E12.77353
G1 X-26.115 Y21.198 E12.79665
G1 X-26.748 Y20.782 E12.8198
G1 X-27.334 Y20.302 E12.84294
G1 X-27.866 Y19.763 E12.86608
G1 X-28.338 Y19.171 E12.88922
G1 X-28.745 Y18.532 E12.91237
G1 X-29.083 Y17.854 E12.93552
G1 X-29.347 Y17.145 E12.95864
G1 X-29.535 Y16.411 E12.98179
G1 X-29.644 Y15.662 E13.00492
G1 X-29.675 Y15 E13.02517
G1 X-29.675 Y-15 E13.94191
G1 X-29.635 Y-15.756 E13.96504
G1 X-29.516 Y-16.504 E13.98819
G1 X-29.318 Y-17.235 E14.01133
G1 X-29.044 Y-17.942 E14.0345
G1 X-28.698 Y-18.615 E14.05762
G1 X-28.282 Y-19.248 E14.08077
G1 X-27.802 Y-19.834 E14.10392
G1 X-27.263 Y-20.366 E14.12706
G1 X-26.671 Y-20.838 E14.15019
G1 X-26.032 Y-21.245 E14.17334
G1 X-25.354 Y-21.583 E14.19649
G1 X-24.645 Y-21.847 E14.21961
G1 X-23.911 Y-22.035 E14.24277
G1 X-23.162 Y-22.144 E14.2659
G1 X-22.5 Y-22.175 E14.28615
G1 X27.5 Y-22.175 E15.81403
G1 X28.256 Y-22.135 E15.83717
G1 X29.004 Y-22.016 E15.86031
G1 X29.735 Y-21.818 E15.88346
G1 X30.442 Y-21.544 E15.90663
G1 X31.115 Y-21.198 E15.92975
G1 X31.748 Y-20.782 E15.9529
G1 X32.334 Y-20.302 E15.97604
G1 X32.866 Y-19.763 E15.99919
G1 X33.338 Y-19.171 E16.02232
G1 X33.745 Y-18.532 E16.04547
G1 X34.083 Y-17.854 E16.06862
G1 X34.347 Y-17.145 E16.09174
G1 X34.535 Y-16.411 E16.11489
G1 X34.644 Y-15.662 E16.13802
G1 X34.675 Y-15 E16.15827
G1 X34.675 Y15 E17.07501
G1 X34.635 Y15.756 E17.09814
G1 X34.516 Y16.504 E17.12129
G1 X34.318 Y17.235 E17.14443
G1 X34.044 Y17.942 E17.1676
G1 X33.698 Y18.615 E17.19072
G1 X33.282 Y19.248 E17.21387
G1 X32.802 Y19.834 E17.23702
G1 X32.263 Y20.366 E17.26016
G1 X31.671 Y20.838 E17.28329
G1 X31.032 Y21.245 E17.30645
G1 X30.354 Y21.583 E17.3296
G1 X29.645 Y21.847 E17.35271
G1 X28.911 Y22.035 E17.37587
G1 X28.162 Y22.144 E17.399
G1 X27.5 Y22.175 E17.41925
G1 X-21.632 Y22.175 E18.92061
G0 F1620 X-22.5 Y22.175
G0 F3600 X-22.5 Y21.825
G1 F1800 X-23.238 Y21.785 E18.9432
G1 X-23.966 Y21.666 E18.96574
G1 X-24.678 Y21.468 E18.98832
G1 X-25.364 Y21.195 E19.01088
G1 X-26.017 Y20.849 E19.03346
G1 X-26.629 Y20.435 E19.05604
G1 X-27.192 Y19.957 E19.07861
G1 X-27.7 Y19.421 E19.10118
G1 X-28.147 Y18.833 E19.12375
G1 X-28.528 Y18.2 E19.14632
G1 X-28.839 Y17.53 E19.1689
G1 X-29.075 Y16.83 E19.19147
G1 X-29.234 Y16.109 E19.21403
G1 X-29.315 Y15.374 E19.23663
G1 X-29.325 Y15 E19.24806
G1 X-29.325 Y-15 E20.16479
G1 X-29.285 Y-15.738 E20.18738
G1 X-29.166 Y-16.466 E20.20992
G1 X-28.968 Y-17.178 E20.2325
G1 X-28.695 Y-17.864 E20.25506
G1 X-28.349 Y-18.517 E20.27764
G1 X-27.935 Y-19.129 E20.30022
G1 X-27.457 Y-19.692 E20.32279
G1 X-26.921 Y-20.2 E20.34536
G1 X-26.333 Y-20.647 E20.36793
G1 X-25.7 Y-21.028 E20.3905
G1 X-25.03 Y-21.339 E20.41308
G1 X-24.33 Y-21.575 E20.43565
G1 X-23.609 Y-21.734 E20.45821
G1 X-22.874 Y-21.815 E20.48081
G1 X-22.5 Y-21.825 E20.49224
G1 X27.5 Y-21.825 E22.02013
G1 X28.238 Y-21.785 E22.04271
G1 X28.966 Y-21.666 E22.06525
G1 X29.678 Y-21.468 E22.08784
G1 X30.364 Y-21.195 E22.1104
G1 X31.017 Y-20.849 E22.13298
G1 X31.629 Y-20.435 E22.15556
G1 X32.192 Y-19.957 E22.17813
G1 X32.7 Y-19.421 E22.20069
G1 X33.147 Y-18.833 E22.22326
G1 X33.528 Y-18.2 E22.24584
G1 X33.839 Y-17.53 E22.26841
G1 X34.075 Y-16.83 E22.29099
G1 X34.234 Y-16.109 E22.31355
G1 X34.315 Y-15.374 E22.33614
G1 X34.325 Y-15 E22.34758
G1 X34.325 Y15 E23.26431
G1 X34.285 Y15.738 E23.28689
G1 X34.166 Y16.466 E23.30943
G1 X33.968 Y17.178 E23.33202
G1 X33.695 Y17.864 E23.35458
G1 X33.349 Y18.517 E23.37716
G1 X32.935 Y19.129 E23.39974
G1 X32.457 Y19.692 E23.42231
G1 X31.921 Y20.2 E23.44487
G1 X31.333 Y20.647 E23.46744
G1 X30.7 Y21.028 E23.49002
G1 X30.03 Y21.339 E23.51259
G1 X29.33 Y21.575 E23.53517
G1 X28.609 Y21.734 E23.55773
G1 X27.874 Y21.815 E23.58032
G1 X27.5 Y21.825 E23.59176
G1 X-21.632 Y21.825 E25.09312
G0 F1620 X-22.5 Y21.825
G0 F3600 X-22.5 Y21.475
G1 F1800 X-23.218 Y21.435 E25.11509
G1 X-23.928 Y21.316 E25.13709
G1 X-24.62 Y21.118 E25.15909
G1 X-25.285 Y20.845 E25.18105
G1 X-25.917 Y20.5 E25.20306
G1 X-26.506 Y20.087 E25.22504
G1 X-27.045 Y19.611 E25.24701
G1 X-27.529 Y19.079 E25.26899
G1 X-27.95 Y18.496 E25.29096
G1 X-28.304 Y17.869 E25.31297
G1 X-28.587 Y17.208 E25.33494
G1 X-28.794 Y16.519 E25.35692
G1 X-28.924 Y15.811 E25.37892
G1 X-28.975 Y15 E25.40375
G1 X-28.975 Y-15 E26.32048
G1 X-28.935 Y-15.718 E26.34246
G1 X-28.816 Y-16.428 E26.36446
G1 X-28.618 Y-17.12 E26.38645
G1 X-28.345 Y-17.785 E26.40842
G1 X-28 Y-18.417 E26.43042
G1 X-27.587 Y-19.006 E26.4524
G1 X-27.111 Y-19.545 E26.47438
G1 X-26.579 Y-20.029 E26.49635
G1 X-25.996 Y-20.45 E26.51833
G1 X-25.369 Y-20.804 E26.54033
G1 X-24.708 Y-21.087 E26.5623
G1 X-24.019 Y-21.294 E26.58429
G1 X-23.311 Y-21.424 E26.60628
G1 X-22.5 Y-21.475 E26.63112
G1 X27.5 Y-21.475 E28.159
G1 X28.218 Y-21.435 E28.18098
G1 X28.928 Y-21.316 E28.20298
G1 X29.62 Y-21.118 E28.22497
G1 X30.285 Y-20.845 E28.24694
G1 X30.917 Y-20.5 E28.26894
G1 X31.506 Y-20.087 E28.29092
G1 X32.045 Y-19.611 E28.3129
G1 X32.529 Y-19.079 E28.33487
G1 X32.95 Y-18.496 E28.35685
G1 X33.304 Y-17.869 E28.37885
G1 X33.587 Y-17.208 E28.40082
G1 X33.794 Y-16.519 E28.42281
G1 X33.924 Y-15.811 E28.4448
G1 X33.975 Y-15 E28.46964
G1 X33.975 Y15 E29.38637
G1 X33.935 Y15.718 E29.40834
G1 X33.816 Y16.428 E29.43034
G1 X33.618 Y17.12 E29.45234
G1 X33.345 Y17.785 E29.4743
G1 X33 Y18.417 E29.4963
G1 X32.587 Y19.006 E29.51829
G1 X32.111 Y19.545 E29.54026
G1 X31.579 Y20.029 E29.56224
G1 X30.996 Y20.45 E29.58421
G1 X30.369 Y20.804 E29.60622
G1 X29.708 Y21.087 E29.62819
G1 X29.019 Y21.294 E29.65017
G1 X28.311 Y21.424 E29.67217
G1 X27.5 Y21.475 E29.697
G1 X-21.632 Y21.475 E31.19836
G0 F1620 X-22.5 Y21.475
G0 F3600 X-22.5 Y21.125
G1 F1800 X-23.199 Y21.085 E31.21976
G1 X-23.888 Y20.966 E31.24112
G1 X-24.559 Y20.768 E31.2625
G1 X-25.204 Y20.496 E31.28389
G1 X-25.813 Y20.152 E31.30527
G1 X-26.379 Y19.74 E31.32666
G1 X-26.894 Y19.267 E31.34803
G1 X-27.352 Y18.738 E31.36941
G1 X-27.747 Y18.16 E31.3908
G1 X-28.073 Y17.541 E31.41218
G1 X-28.327 Y16.889 E31.43356
G1 X-28.504 Y16.212 E31.45494
G1 X-28.603 Y15.519 E31.47634
G1 X-28.625 Y15 E31.49221
G1 X-28.625 Y-15 E32.40894
G1 X-28.585 Y-15.699 E32.43034
G1 X-28.466 Y-16.388 E32.4517
G1 X-28.268 Y-17.059 E32.47308
G1 X-27.996 Y-17.704 E32.49447
G1 X-27.652 Y-18.313 E32.51584
G1 X-27.24 Y-18.879 E32.53724
G1 X-26.767 Y-19.394 E32.5586
G1 X-26.238 Y-19.852 E32.57999
G1 X-25.66 Y-20.247 E32.60138
G1 X-25.041 Y-20.573 E32.62276
G1 X-24.389 Y-20.827 E32.64414
G1 X-23.712 Y-21.004 E32.66552
G1 X-23.019 Y-21.103 E32.68691
G1 X-22.5 Y-21.125 E32.70279
G1 X27.5 Y-21.125 E34.23068
G1 X28.199 Y-21.085 E34.25207
G1 X28.888 Y-20.966 E34.27344
G1 X29.559 Y-20.768 E34.29481
G1 X30.204 Y-20.496 E34.31621
G1 X30.813 Y-20.152 E34.33758
G1 X31.379 Y-19.74 E34.35897
G1 X31.894 Y-19.267 E34.38034
G1 X32.352 Y-18.738 E34.40172
G1 X32.747 Y-18.16 E34.42311
G1 X33.073 Y-17.541 E34.44449
G1 X33.327 Y-16.889 E34.46587
G1 X33.504 Y-16.212 E34.48726
G1 X33.603 Y-15.519 E34.50865
G1 X33.625 Y-15 E34.52452
G1 X33.625 Y15 E35.44125
G1 X33.585 Y15.699 E35.46265
G1 X33.466 Y16.388 E35.48401
G1 X33.268 Y17.059 E35.50539
G1 X32.996 Y17.704 E35.52678
G1 X32.652 Y18.313 E35.54816
G1 X32.24 Y18.879 E35.56955
G1 X31.767 Y19.394 E35.59092
G1 X31.238 Y19.852 E35.6123
G1 X30.66 Y20.247 E35.63369
G1 X30.041 Y20.573 E35.65507
G1 X29.389 Y20.827 E35.67645
G1 X28.712 Y21.004 E35.69784
G1 X28.019 Y21.103 E35.71923
G1 X27.5 Y21.125 E35.7351
G1 X-21.632 Y21.125 E37.23646
G0 F1620 X-22.5 Y21.125
G0 F3600 X-22.5 Y20.775
G1 F1800 X-23.178 Y20.735 E37.25722
G1 X-23.847 Y20.616 E37.27798
G1 X-24.497 Y20.419 E37.29874
G1 X-25.12 Y20.147 E37.31951
G1 X-25.706 Y19.803 E37.34027
G1 X-26.248 Y19.393 E37.36104
G1 X-26.738 Y18.923 E37.38179
G1 X-27.169 Y18.398 E37.40255
G1 X-27.536 Y17.826 E37.42331
G1 X-27.833 Y17.215 E37.44407
G1 X-28.057 Y16.573 E37.46485
G1 X-28.203 Y15.91 E37.4856
G1 X-28.275 Y15 E37.51349
G1 X-28.275 Y-15 E38.43022
G1 X-28.235 Y-15.678 E38.45098
G1 X-28.116 Y-16.347 E38.47174
G1 X-27.919 Y-16.997 E38.4925
G1 X-27.647 Y-17.62 E38.51327
G1 X-27.303 Y-18.206 E38.53403
G1 X-26.893 Y-18.748 E38.5548
G1 X-26.423 Y-19.238 E38.57555
G1 X-25.898 Y-19.669 E38.5963
G1 X-25.326 Y-20.036 E38.61707
G1 X-24.715 Y-20.333 E38.63783
G1 X-24.073 Y-20.557 E38.65861
G1 X-23.41 Y-20.703 E38.67935
G1 X-22.5 Y-20.775 E38.70725
G1 X27.5 Y-20.775 E40.23514
G1 X28.178 Y-20.735 E40.25589
G1 X28.847 Y-20.616 E40.27665
G1 X29.497 Y-20.419 E40.29741
G1 X30.12 Y-20.147 E40.31818
G1 X30.706 Y-19.803 E40.33895
G1 X31.248 Y-19.393 E40.35971
G1 X31.738 Y-18.923 E40.38046
G1 X32.169 Y-18.398 E40.40122
G1 X32.536 Y-17.826 E40.42199
G1 X32.833 Y-17.215 E40.44274
G1 X33.057 Y-16.573 E40.46352
G1 X33.203 Y-15.91 E40.48427
G1 X33.275 Y-15 E40.51216
G1 X33.275 Y15 E41.42889
G1 X33.235 Y15.678 E41.44965
G1 X33.116 Y16.347 E41.47041
G1 X32.919 Y16.997 E41.49117
G1 X32.647 Y17.62 E41.51194
G1 X32.303 Y18.206 E41.5327
G1 X31.893 Y18.748 E41.55347
G1 X31.423 Y19.238 E41.57422
G1 X30.898 Y19.669 E41.59498
G1 X30.326 Y20.036 E41.61574
G1 X29.715 Y20.333 E41.6365
G1 X29.073 Y20.557 E41.65728
G1 X28.41 Y20.703 E41.67803
G1 X27.5 Y20.775 E41.70592
G1 X-21.632 Y20.775 E43.20728
G0 F1620 X-22.5 Y20.775
G0 F3600 X-22.5 Y20.425
G1 F1800 X-23.157 Y20.385 E43.2274
G1 X-23.805 Y20.266 E43.24753
G1 X-24.433 Y20.069 E43.26764
G1 X-25.033 Y19.797 E43.28777
G1 X-25.596 Y19.455 E43.3079
G1 X-26.113 Y19.047 E43.32803
G1 X-26.576 Y18.58 E43.34812
G1 X-26.98 Y18.059 E43.36827
G1 X-27.318 Y17.494 E43.38839
G1 X-27.584 Y16.892 E43.4085
G1 X-27.776 Y16.262 E43.42863
G1 X-27.89 Y15.614 E43.44873
G1 X-27.925 Y15 E43.46752
G1 X-27.925 Y-15 E44.38426
G1 X-27.885 Y-15.657 E44.40437
G1 X-27.766 Y-16.305 E44.4245
G1 X-27.569 Y-16.933 E44.44462
G1 X-27.297 Y-17.533 E44.46475
G1 X-26.955 Y-18.096 E44.48488
G1 X-26.547 Y-18.613 E44.505
G1 X-26.08 Y-19.076 E44.5251
G1 X-25.559 Y-19.48 E44.54524
G1 X-24.994 Y-19.818 E44.56536
G1 X-24.392 Y-20.084 E44.58547
G1 X-23.762 Y-20.276 E44.6056
G1 X-23.114 Y-20.39 E44.6257
G1 X-22.5 Y-20.425 E44.6445
G1 X27.5 Y-20.425 E46.17238
G1 X28.157 Y-20.385 E46.1925
G1 X28.805 Y-20.266 E46.21263
